;FLAVOR:Marlin
;TIME:1189
;Filament used: 0.781026m
;Layer height: 0.3
;MINX:130.425
;MINY:141.603
;MINZ:0.3
;MAXX:168.327
;MAXY:158.226
;MAXZ:19.8
;TARGET_MACHINE.NAME:Creality CR-10
;Generated with Cura_SteamEngine 5.9.0
M140 S50
M105
M190 S50
M104 S200
M105
M109 S200
M82 ;absolute extrusion mode
M201 X500.00 Y500.00 Z100.00 E5000.00 ;Setup machine max acceleration
M203 X500.00 Y500.00 Z10.00 E50.00 ;Setup machine max feedrate
M204 P500.00 R1000.00 T500.00 ;Setup Print/Retract/Travel acceleration
M205 X8.00 Y8.00 Z0.40 E5.00 ;Setup Jerk
M220 S100 ;Reset Feedrate
M221 S100 ;Reset Flowrate

G28 ;Home

G92 E0 ;Reset Extruder
G1 Z2.0 F3000 ;Move Z Axis up
G1 X10.1 Y20 Z0.28 F5000.0 ;Move to start position
G1 X10.1 Y200.0 Z0.28 F1500.0 E15 ;Draw the first line
G1 X10.4 Y200.0 Z0.28 F5000.0 ;Move to side a little
G1 X10.4 Y20 Z0.28 F1500.0 E30 ;Draw the second line
G92 E0 ;Reset Extruder
G1 Z2.0 F3000 ;Move Z Axis up

G92 E0
G92 E0
G1 F2700 E-5
;LAYER_COUNT:66
;LAYER:0
M107
G0 F6000 X137.975 Y147.307 Z0.3
;TYPE:SKIRT
G1 F2700 E0
G1 F1200 X137.926 Y145.713 E0.09548
G1 X137.275 Y145.652 E0.13462
G1 X137.117 Y146.402 E0.18051
G1 X136.961 Y147.227 E0.23077
G1 X137.36 Y147.166 E0.25494
G1 X137.685 Y147.188 E0.27444
G1 X137.975 Y147.307 E0.29321
G1 F2700 E-4.70679
G0 F6000 X138.126 Y149.299
G1 F2700 E0.29321
G1 F1200 X138.317 Y150.49 E0.36542
G1 X138.464 Y152.038 E0.45851
G1 X138.522 Y153.098 E0.52207
G1 X138.49 Y153.231 E0.53026
G1 X138.397 Y153.322 E0.53805
G1 X138.06 Y153.506 E0.56104
G1 X137.543 Y153.563 E0.59217
G1 X137.258 Y153.563 E0.60924
G1 X136.97 Y153.549 E0.6265
G1 X136.687 Y153.517 E0.64355
G1 X136.39 Y153.469 E0.66156
G1 X136.01 Y153.366 E0.68513
G1 X135.726 Y153.235 E0.70386
G1 X135.505 Y153.004 E0.723
G1 X135.429 Y152.854 E0.73306
G1 X135.818 Y151.236 E0.83269
G1 X136.213 Y149.865 E0.91811
G1 X136.58 Y148.909 E0.97942
G1 X136.926 Y148.34 E1.01928
G1 X137.043 Y148.242 E1.02842
G1 X137.334 Y148.129 E1.04711
G1 X137.471 Y148.118 E1.05534
G1 X137.603 Y148.196 E1.06452
G1 X137.892 Y148.53 E1.09096
G1 X138.126 Y149.299 E1.13908
G1 F2700 E-3.86092
G0 F6000 X137.985 Y157.435
G1 F2700 E1.13908
G1 F1200 X137.068 Y157.475 E1.19403
G1 X135.908 Y157.368 E1.26378
G1 X135.004 Y157.089 E1.32042
G1 X134.212 Y156.523 E1.3787
G1 X133.84 Y156.027 E1.41581
G1 X133.738 Y155.851 E1.42799
G1 X133.391 Y155.755 E1.44955
G1 X132.89 Y155.486 E1.48359
G1 X132.433 Y155.092 E1.51971
G1 X132.176 Y154.679 E1.54884
G1 X131.686 Y153.435 E1.62888
G1 X131.564 Y152.754 E1.6703
G1 X131.821 Y150.985 E1.77732
G1 X131.563 Y150.453 E1.81272
G1 X131.477 Y149.9 E1.84622
G1 X132.299 Y143.968 E2.20475
G1 X132.585 Y143.305 E2.24798
G1 X132.891 Y142.822 E2.28221
G1 X133.581 Y142.202 E2.33775
G1 X134.212 Y141.839 E2.38133
G1 X135.632 Y141.603 E2.46751
G1 X136.229 Y141.713 E2.50385
G1 X137.062 Y141.737 E2.55374
G1 X137.639 Y141.876 E2.58928
G1 X137.929 Y142.034 E2.60905
G1 X138.66 Y141.874 E2.65385
G1 X139.718 Y142.024 E2.71782
G1 X140.112 Y142.046 E2.74145
G1 X140.574 Y142.144 E2.76972
G1 X141.287 Y142.395 E2.81498
G1 X141.76 Y142.646 E2.84703
G1 X142.418 Y143.262 E2.90099
G1 X142.609 Y143.507 E2.91959
G1 X143.01 Y144.357 E2.97586
G1 X143.44 Y144.096 E3.00597
G1 X143.989 Y143.928 E3.04035
G1 X144.467 Y143.89 E3.06905
G1 X144.725 Y143.771 E3.08606
G1 X145.213 Y143.627 E3.11652
G1 X145.73 Y143.646 E3.1475
G1 X147.687 Y144.106 E3.26785
G1 X148.208 Y143.922 E3.30093
G1 X148.713 Y143.889 E3.33123
G1 X149.535 Y144.056 E3.38145
G1 X150.738 Y144.338 E3.45542
G1 X151.234 Y144.15 E3.48718
G1 X151.805 Y144.111 E3.52144
G1 X154.189 Y144.666 E3.66798
G1 X156.329 Y145.221 E3.80034
G1 X156.869 Y145.539 E3.83786
G1 X157.205 Y145.547 E3.85798
G1 X157.504 Y145.622 E3.87643
G1 X157.778 Y145.615 E3.89284
G1 X158.179 Y145.675 E3.91712
G1 X158.703 Y145.637 E3.94857
G1 X159.134 Y145.768 E3.97554
G1 X159.399 Y145.763 E3.99141
G1 X159.77 Y145.818 E4.01386
G1 X159.877 Y145.843 E4.02044
G1 X160.175 Y145.833 E4.03829
G1 X160.5 Y145.882 E4.05797
G1 X160.654 Y145.797 E4.0685
G1 X160.99 Y145.363 E4.10136
G1 X161.464 Y144.857 E4.14287
G1 X162.092 Y144.471 E4.187
G1 X162.858 Y144.108 E4.23775
G1 X163.821 Y143.933 E4.29634
G1 X164.767 Y144.019 E4.35321
G1 X164.939 Y144.068 E4.36392
G1 X165.808 Y144.508 E4.42223
G1 X166.7 Y145.123 E4.4871
G1 X167.345 Y145.81 E4.54352
G1 X167.794 Y146.748 E4.60577
G1 X167.956 Y147.856 E4.67281
G1 X167.715 Y149.128 E4.75032
G1 X167.692 Y149.447 E4.76947
G1 X167.909 Y150.979 E4.8621
G1 X167.653 Y152.626 E4.96189
G1 X167.366 Y153.287 E5.00503
G1 X167.275 Y153.746 E5.03305
G1 X167.291 Y154.786 E5.09532
G1 X167.091 Y155.72 E5.1525
G1 X166.678 Y156.465 E5.2035
G1 X166.34 Y156.906 E5.23676
G1 X165.575 Y157.46 E5.29331
G1 X164.646 Y157.95 E5.35619
G1 X163.977 Y158.187 E5.39868
G1 X163.67 Y158.226 E5.41721
G1 X162.839 Y158.197 E5.46699
G1 X161.889 Y157.925 E5.52615
G1 X160.789 Y157.217 E5.60446
G1 X160.104 Y156.44 E5.66648
G1 X159.725 Y155.643 E5.71931
G1 X159.62 Y155.526 E5.72873
G1 X159.327 Y155.518 E5.74627
G1 X159.037 Y155.437 E5.7643
G1 X158.811 Y155.46 E5.7779
G1 X158.488 Y155.444 E5.79726
G1 X158.143 Y155.348 E5.8187
G1 X157.863 Y155.361 E5.83548
G1 X157.579 Y155.322 E5.85264
G1 X157.422 Y155.278 E5.8624
G1 X156.997 Y155.318 E5.88796
G1 X156.642 Y155.21 E5.91018
G1 X156.347 Y155.242 E5.92794
G1 X156.106 Y155.225 E5.94241
G1 X155.672 Y155.398 E5.97038
G1 X154.443 Y155.527 E6.04436
G1 X152.902 Y155.662 E6.13697
G1 X151.039 Y155.795 E6.24879
G1 X150.355 Y155.693 E6.29019
G1 X149.845 Y155.41 E6.32511
G1 X147.942 Y155.548 E6.43934
G1 X147.255 Y155.446 E6.48092
G1 X146.746 Y155.163 E6.51578
G1 X144.846 Y155.303 E6.62984
G1 X144.313 Y155.225 E6.66209
G1 X143.846 Y155.048 E6.69199
G1 X143.575 Y154.843 E6.71233
G1 X143.243 Y154.781 E6.73255
G1 X142.848 Y154.612 E6.75828
G1 X142.4 Y154.331 E6.78994
G1 X142.141 Y154.217 E6.80688
G1 X141.926 Y154.748 E6.84117
G1 X141.305 Y155.403 E6.89521
G1 X140.828 Y155.745 E6.93035
G1 X139.897 Y156.088 E6.98975
G1 X139.609 Y156.49 E7.01935
G1 X138.96 Y157.032 E7.06998
G1 X137.985 Y157.435 E7.13314
G0 F6000 X137.878 Y156.96
G1 F1200 X137.112 Y156.997 E7.17905
G1 X136.004 Y156.895 E7.24567
G1 X135.22 Y156.653 E7.29479
G1 X134.551 Y156.175 E7.34401
G1 X134.224 Y155.739 E7.37664
G1 X134.061 Y155.442 E7.39692
G1 X133.57 Y155.306 E7.42742
G1 X133.164 Y155.088 E7.45501
G1 X132.802 Y154.776 E7.48362
G1 X132.608 Y154.464 E7.50562
G1 X132.149 Y153.299 E7.58058
G1 X132.05 Y152.747 E7.61416
G1 X132.322 Y150.874 E7.72747
G1 X132.235 Y150.745 E7.73678
G1 X132.026 Y150.308 E7.76578
G1 X131.962 Y149.895 E7.79081
G1 X132.765 Y144.101 E8.141
G1 X132.991 Y143.562 E8.17599
G1 X133.262 Y143.134 E8.20632
G1 X133.864 Y142.594 E8.25473
G1 X134.378 Y142.298 E8.29024
G1 X135.627 Y142.09 E8.36605
G1 X136.18 Y142.192 E8.39971
G1 X136.998 Y142.216 E8.44871
G1 X137.527 Y142.343 E8.48128
G1 X137.814 Y142.535 E8.50195
G1 X137.986 Y142.55 E8.51229
G1 X138.182 Y142.47 E8.52496
G1 X138.677 Y142.362 E8.55529
G1 X139.367 Y142.466 E8.59707
G1 X139.682 Y142.503 E8.61606
G1 X140.012 Y142.516 E8.63583
G1 X140.474 Y142.614 E8.6641
G1 X141.062 Y142.819 E8.70138
G1 X141.48 Y143.041 E8.72972
G1 X142.09 Y143.612 E8.77974
G1 X142.196 Y143.757 E8.79049
G1 X142.487 Y144.374 E8.83133
G1 X142.611 Y144.726 E8.85368
G1 X142.691 Y144.827 E8.86139
G1 X142.852 Y144.909 E8.87221
G1 X143.091 Y144.869 E8.88672
G1 X143.636 Y144.538 E8.92489
G1 X144.08 Y144.402 E8.95269
G1 X144.427 Y144.369 E8.97356
G1 X144.575 Y144.372 E8.98242
G1 X144.861 Y144.231 E9.00151
G1 X145.272 Y144.11 E9.02716
G1 X145.669 Y144.124 E9.05094
G1 X147.742 Y144.612 E9.17844
G1 X147.881 Y144.544 E9.18771
G1 X148.304 Y144.397 E9.21452
G1 X148.682 Y144.372 E9.2372
G1 X149.425 Y144.523 E9.28259
G1 X150.519 Y144.78 E9.34987
G1 X150.814 Y144.824 E9.36772
G1 X151.339 Y144.624 E9.40136
G1 X151.765 Y144.595 E9.42692
G1 X154.069 Y145.131 E9.56854
G1 X156.145 Y145.669 E9.69693
G1 X156.745 Y146.023 E9.73864
G1 X157.088 Y146.013 E9.75918
G1 X157.459 Y146.106 E9.78208
G1 X157.707 Y146.09 E9.79696
G1 X158.161 Y146.158 E9.82444
G1 X158.65 Y146.122 E9.8538
G1 X159.074 Y146.251 E9.88033
G1 X159.329 Y146.238 E9.89562
G1 X159.7 Y146.293 E9.91807
G1 X159.831 Y146.328 E9.92619
G1 X160.104 Y146.308 E9.94258
G1 X160.589 Y146.381 E9.97194
G1 X160.891 Y146.215 E9.99257
G1 X161.113 Y145.988 E10.01158
G1 X161.34 Y145.691 E10.03396
G1 X161.769 Y145.233 E10.07153
G1 X162.297 Y144.905 E10.10874
G1 X163.007 Y144.569 E10.15577
G1 X163.842 Y144.417 E10.20658
G1 X164.724 Y144.497 E10.2596
G1 X165.535 Y144.903 E10.3139
G1 X166.384 Y145.489 E10.37566
G1 X166.945 Y146.086 E10.4247
G1 X167.329 Y146.889 E10.47799
G1 X167.469 Y147.845 E10.53584
G1 X167.238 Y149.065 E10.61017
G1 X167.209 Y149.461 E10.63394
G1 X167.424 Y150.976 E10.72555
G1 X167.188 Y152.492 E10.81741
G1 X166.91 Y153.132 E10.85918
G1 X166.836 Y153.408 E10.87629
G1 X166.794 Y153.715 E10.89484
G1 X166.81 Y154.741 E10.95627
G1 X166.637 Y155.549 E11.00574
G1 X166.297 Y156.173 E11.04828
G1 X166.002 Y156.558 E11.07732
G1 X165.349 Y157.037 E11.12581
G1 X164.485 Y157.498 E11.18444
G1 X163.865 Y157.718 E11.22382
G1 X163.687 Y157.746 E11.23461
G1 X162.915 Y157.719 E11.28086
G1 X162.086 Y157.482 E11.33247
G1 X161.107 Y156.851 E11.4022
G1 X160.507 Y156.171 E11.4565
G1 X160.135 Y155.389 E11.50834
G1 X159.982 Y155.192 E11.52327
G1 X159.751 Y155.034 E11.54003
G1 X159.457 Y155.056 E11.55768
G1 X159.068 Y154.947 E11.58187
G1 X158.835 Y154.981 E11.59596
G1 X158.512 Y154.965 E11.61532
G1 X158.2 Y154.861 E11.63501
G1 X157.928 Y154.885 E11.65136
G1 X157.644 Y154.846 E11.66852
G1 X157.476 Y154.791 E11.67911
G1 X157.045 Y154.831 E11.70502
G1 X156.679 Y154.72 E11.72792
G1 X156.38 Y154.763 E11.746
G1 X156.031 Y154.739 E11.76695
G1 X155.555 Y154.928 E11.79761
G1 X154.401 Y155.049 E11.86707
G1 X152.868 Y155.183 E11.9592
G1 X151.057 Y155.312 E12.0679
G1 X150.511 Y155.231 E12.10094
G1 X150.123 Y155.019 E12.12741
G1 X149.984 Y154.918 E12.1377
G1 X147.959 Y155.065 E12.25925
G1 X147.411 Y154.984 E12.29242
G1 X147.023 Y154.772 E12.31889
G1 X146.885 Y154.671 E12.32913
G1 X144.863 Y154.82 E12.45051
G1 X144.434 Y154.757 E12.47647
G1 X144.082 Y154.624 E12.49899
G1 X143.766 Y154.385 E12.52271
G1 X143.424 Y154.337 E12.54339
G1 X143.103 Y154.206 E12.56415
G1 X142.619 Y153.902 E12.59836
G1 X142.284 Y153.755 E12.62027
G1 X142.068 Y153.696 E12.63367
G1 X141.78 Y153.831 E12.65271
G1 X141.515 Y154.485 E12.69496
G1 X140.99 Y155.038 E12.74061
G1 X140.601 Y155.317 E12.76927
G1 X139.765 Y155.628 E12.82267
G1 X139.581 Y155.668 E12.83394
G1 X139.493 Y155.831 E12.84503
G1 X139.253 Y156.162 E12.86951
G1 X138.71 Y156.616 E12.91188
G1 X137.878 Y156.96 E12.96578
G0 F6000 X137.772 Y156.485
G1 F1200 X137.156 Y156.519 E13.00272
G1 X136.1 Y156.422 E13.06621
G1 X135.436 Y156.217 E13.10781
G1 X134.89 Y155.827 E13.14798
G1 X134.608 Y155.451 E13.17612
G1 X134.486 Y155.218 E13.19186
G1 X134.322 Y155.016 E13.20744
G1 X133.749 Y154.857 E13.24304
G1 X133.437 Y154.69 E13.26423
G1 X133.17 Y154.459 E13.28537
G1 X133.055 Y154.288 E13.2977
G1 X132.612 Y153.163 E13.37009
G1 X132.536 Y152.74 E13.39582
G1 X132.827 Y150.735 E13.51711
G1 X132.668 Y150.538 E13.53227
G1 X132.489 Y150.164 E13.55709
G1 X132.447 Y149.891 E13.57363
G1 X133.231 Y144.232 E13.91566
G1 X133.434 Y143.748 E13.94708
G1 X133.632 Y143.446 E13.9687
G1 X134.145 Y142.986 E14.00995
G1 X134.543 Y142.757 E14.03744
G1 X135.622 Y142.577 E14.10293
G1 X136.131 Y142.671 E14.13392
G1 X136.935 Y142.695 E14.18207
G1 X137.333 Y142.79 E14.20657
G1 X137.651 Y143.002 E14.22945
G1 X138.078 Y143.039 E14.25511
G1 X138.284 Y142.939 E14.26882
G1 X138.692 Y142.85 E14.29382
G1 X139.302 Y142.942 E14.33075
G1 X139.647 Y142.983 E14.35155
G1 X139.917 Y142.986 E14.36772
G1 X140.316 Y143.067 E14.39209
G1 X140.904 Y143.272 E14.42938
G1 X141.199 Y143.435 E14.44955
G1 X141.762 Y143.962 E14.49572
G1 X142.053 Y144.579 E14.53656
G1 X142.099 Y144.73 E14.54601
G1 X142.188 Y144.965 E14.56106
G1 X142.38 Y145.207 E14.57955
G1 X142.734 Y145.388 E14.60335
G1 X143.016 Y145.391 E14.62024
G1 X143.287 Y145.311 E14.63715
G1 X143.832 Y144.98 E14.67533
G1 X144.174 Y144.875 E14.69675
G1 X144.472 Y144.847 E14.71467
G1 X144.708 Y144.861 E14.72882
G1 X144.76 Y144.818 E14.73286
G1 X144.997 Y144.691 E14.74896
G1 X145.333 Y144.592 E14.76993
G1 X145.559 Y144.591 E14.78346
G1 X147.505 Y145.049 E14.90315
G1 X147.871 Y145.095 E14.92523
G1 X148.038 Y144.997 E14.93682
G1 X148.398 Y144.872 E14.95964
G1 X148.651 Y144.855 E14.97482
G1 X149.315 Y144.99 E15.01538
G1 X150.434 Y145.253 E15.0842
G1 X150.93 Y145.327 E15.11422
G1 X151.061 Y145.244 E15.12351
G1 X151.444 Y145.098 E15.14805
G1 X151.724 Y145.079 E15.16485
G1 X153.949 Y145.596 E15.30161
G1 X155.961 Y146.117 E15.42603
G1 X156.488 Y146.428 E15.46267
G1 X156.7 Y146.504 E15.47615
G1 X157.101 Y146.493 E15.50017
G1 X157.41 Y146.595 E15.51965
G1 X157.643 Y146.566 E15.5337
G1 X158.017 Y146.616 E15.55629
G1 X158.148 Y146.655 E15.56448
G1 X158.254 Y146.627 E15.57104
G1 X158.596 Y146.607 E15.59155
G1 X159.031 Y146.74 E15.61878
G1 X159.259 Y146.713 E15.63253
G1 X159.63 Y146.768 E15.65498
G1 X159.788 Y146.818 E15.6649
G1 X160.04 Y146.784 E15.68013
G1 X160.42 Y146.835 E15.70308
G1 X160.546 Y146.872 E15.71094
G1 X160.792 Y146.817 E15.72604
G1 X161.184 Y146.602 E15.7528
G1 X161.477 Y146.303 E15.77786
G1 X161.722 Y145.982 E15.80204
G1 X162.075 Y145.608 E15.83283
G1 X162.502 Y145.339 E15.86304
G1 X163.156 Y145.03 E15.90635
G1 X163.863 Y144.901 E15.94937
G1 X164.589 Y144.967 E15.99302
G1 X165.262 Y145.298 E16.03792
G1 X166.068 Y145.855 E16.09657
G1 X166.545 Y146.362 E16.13825
G1 X166.865 Y147.03 E16.18259
G1 X166.982 Y147.834 E16.23123
G1 X166.761 Y149.002 E16.3024
G1 X166.736 Y149.343 E16.32287
G1 X166.748 Y149.627 E16.33989
G1 X166.939 Y150.973 E16.42128
G1 X166.724 Y152.356 E16.50507
G1 X166.455 Y152.973 E16.54537
G1 X166.366 Y153.309 E16.56618
G1 X166.313 Y153.689 E16.58915
G1 X166.329 Y154.696 E16.64944
G1 X166.183 Y155.38 E16.69131
G1 X165.876 Y155.943 E16.7297
G1 X165.663 Y156.212 E16.75025
G1 X165.121 Y156.615 E16.79068
G1 X164.324 Y157.046 E16.84493
G1 X163.704 Y157.266 E16.88431
G1 X162.987 Y157.241 E16.92726
G1 X162.289 Y157.041 E16.97073
G1 X161.421 Y156.482 E17.03254
G1 X160.913 Y155.906 E17.07852
G1 X160.547 Y155.136 E17.12956
G1 X160.316 Y154.839 E17.15209
G1 X159.997 Y154.621 E17.17522
G1 X159.806 Y154.548 E17.18746
G1 X159.421 Y154.577 E17.21058
G1 X159.115 Y154.444 E17.23055
G1 X158.859 Y154.502 E17.24627
G1 X158.602 Y154.489 E17.26167
G1 X158.239 Y154.368 E17.28458
G1 X157.993 Y154.409 E17.29951
G1 X157.709 Y154.37 E17.31667
G1 X157.536 Y154.288 E17.32813
G1 X157.24 Y154.351 E17.34625
G1 X157.045 Y154.351 E17.35793
G1 X156.727 Y154.22 E17.37852
G1 X156.414 Y154.284 E17.39764
G1 X156.157 Y154.266 E17.41307
G1 X156.032 Y154.221 E17.42102
G1 X155.437 Y154.458 E17.45936
G1 X154.359 Y154.571 E17.52426
G1 X152.834 Y154.704 E17.6159
G1 X151.075 Y154.829 E17.72148
G1 X150.666 Y154.769 E17.74622
G1 X150.354 Y154.598 E17.76752
G1 X150.214 Y154.482 E17.77841
G1 X149.974 Y154.449 E17.79291
G1 X149.704 Y154.457 E17.80908
G1 X147.976 Y154.582 E17.91281
G1 X147.566 Y154.522 E17.93761
G1 X147.254 Y154.351 E17.95891
G1 X147.112 Y154.232 E17.97001
G1 X146.77 Y154.198 E17.99058
G1 X144.879 Y154.337 E18.1041
G1 X144.556 Y154.29 E18.12364
G1 X144.252 Y154.175 E18.1431
G1 X143.978 Y153.93 E18.1651
G1 X143.549 Y153.87 E18.19104
G1 X143.359 Y153.8 E18.20316
G1 X142.847 Y153.478 E18.23937
G1 X142.444 Y153.301 E18.26572
G1 X142.074 Y153.201 E18.28867
G1 X141.787 Y153.271 E18.30635
G1 X141.46 Y153.463 E18.32906
G1 X141.275 Y153.799 E18.35202
G1 X141.103 Y154.222 E18.37936
G1 X140.675 Y154.673 E18.41658
G1 X140.373 Y154.89 E18.43884
G1 X139.598 Y155.178 E18.48834
G1 X139.256 Y155.236 E18.50911
G1 X139.105 Y155.549 E18.52991
G1 X138.9 Y155.831 E18.55079
G1 X138.458 Y156.201 E18.5853
G1 X137.772 Y156.485 E18.62975
G0 F6000 X137.954 Y155.371
G1 F1200 X137.554 Y155.537 E18.65567
G1 X137.244 Y155.563 E18.6743
G1 X136.292 Y155.476 E18.73153
G1 X135.868 Y155.345 E18.7581
G1 X135.568 Y155.131 E18.78016
G1 X135.376 Y154.875 E18.79932
G1 X135.314 Y154.714 E18.80965
G1 X135.027 Y154.367 E18.83661
G1 X134.973 Y154.241 E18.84481
