;FLAVOR:Marlin
;TIME:2170
;Filament used: 1.77948m
;Layer height: 0.3
;MINX:129.533
;MINY:131.473
;MINZ:0.3
;MAXX:170.467
;MAXY:169.806
;MAXZ:21.6
;TARGET_MACHINE.NAME:Creality CR-10
;Generated with Cura_SteamEngine 5.9.0
M140 S50
M105
M190 S50
M104 S200
M105
M109 S200
M82 ;absolute extrusion mode
M201 X500.00 Y500.00 Z100.00 E5000.00 ;Setup machine max acceleration
M203 X500.00 Y500.00 Z10.00 E50.00 ;Setup machine max feedrate
M204 P500.00 R1000.00 T500.00 ;Setup Print/Retract/Travel acceleration
M205 X8.00 Y8.00 Z0.40 E5.00 ;Setup Jerk
M220 S100 ;Reset Feedrate
M221 S100 ;Reset Flowrate

G28 ;Home

G92 E0 ;Reset Extruder
G1 Z2.0 F3000 ;Move Z Axis up
G1 X10.1 Y20 Z0.28 F5000.0 ;Move to start position
G1 X10.1 Y200.0 Z0.28 F1500.0 E15 ;Draw the first line
G1 X10.4 Y200.0 Z0.28 F5000.0 ;Move to side a little
G1 X10.4 Y20 Z0.28 F1500.0 E30 ;Draw the second line
G92 E0 ;Reset Extruder
G1 Z2.0 F3000 ;Move Z Axis up

G92 E0
G92 E0
G1 F2700 E-5
;LAYER_COUNT:72
;LAYER:0
M107
G0 F6000 X165.122 Y169.657 Z0.3
;TYPE:SKIRT
G1 F2700 E0
G1 F1200 X164.747 Y169.724 E0.02281
G1 X164.095 Y169.793 E0.06206
G1 X163.659 Y169.806 E0.08817
G1 X136.212 Y169.804 E1.73138
G1 X135.883 Y169.792 E1.75109
G1 X135.253 Y169.724 E1.78902
G1 X134.859 Y169.654 E1.81298
G1 X134.208 Y169.482 E1.85329
G1 X133.708 Y169.308 E1.88499
G1 X133.334 Y169.147 E1.90936
G1 X132.831 Y168.889 E1.94321
G1 X132.372 Y168.607 E1.97546
G1 X131.952 Y168.299 E2.00664
G1 X131.579 Y167.98 E2.03602
G1 X131.156 Y167.553 E2.07201
G1 X130.827 Y167.161 E2.10265
G1 X130.53 Y166.742 E2.13339
G1 X130.275 Y166.314 E2.16322
G1 X130.088 Y165.939 E2.18831
G1 X129.872 Y165.398 E2.22318
G1 X129.719 Y164.885 E2.25523
G1 X129.62 Y164.417 E2.28387
G1 X129.547 Y163.82 E2.31988
G1 X129.533 Y163.404 E2.3448
G1 X129.538 Y138.325 E3.84623
G1 X129.563 Y137.886 E3.87256
G1 X129.622 Y137.45 E3.8989
G1 X129.757 Y136.849 E3.93577
G1 X129.876 Y136.471 E3.9595
G1 X130.107 Y135.909 E3.99588
G1 X130.364 Y135.415 E4.02921
G1 X130.637 Y134.982 E4.05986
G1 X130.911 Y134.615 E4.08728
G1 X131.253 Y134.223 E4.11842
G1 X131.717 Y133.776 E4.157
G1 X132.313 Y133.415 E4.19871
G1 X133.051 Y133.281 E4.24362
G1 X133.602 Y133.34 E4.27679
G1 X134.137 Y133.561 E4.31145
G1 X134.644 Y133.916 E4.3485
G1 X135.097 Y134.591 E4.39717
G1 X135.255 Y135.288 E4.43996
G1 X135.265 Y164.645 E6.19751
G1 X165.284 Y164.642 E7.99469
G1 X165.29 Y137.753 E9.60449
G1 X165.298 Y135.871 E9.71716
G1 X165.453 Y135.191 E9.75892
G1 X165.81 Y134.654 E9.79752
G1 X166.247 Y134.231 E9.83394
G1 X166.825 Y133.981 E9.87164
G1 X167.152 Y133.902 E9.89178
G1 X167.691 Y133.903 E9.92405
G1 X168.203 Y134.011 E9.95537
G1 X168.699 Y134.281 E9.98918
G1 X169.062 Y134.574 E10.01711
G1 X169.461 Y135.127 E10.05794
G1 X169.736 Y135.593 E10.09033
G1 X169.948 Y136.03 E10.11941
G1 X170.15 Y136.546 E10.15258
G1 X170.277 Y136.977 E10.17948
G1 X170.38 Y137.462 E10.20917
G1 X170.453 Y138.054 E10.24488
G1 X170.467 Y138.388 E10.26489
G1 X170.466 Y163.496 E11.76806
G1 X170.445 Y163.911 E11.79294
G1 X170.378 Y164.428 E11.82415
G1 X170.249 Y165.003 E11.85943
G1 X170.075 Y165.543 E11.8934
G1 X169.892 Y165.974 E11.92143
G1 X169.629 Y166.48 E11.95557
G1 X169.361 Y166.905 E11.98565
G1 X169.1 Y167.255 E12.01179
G1 X168.734 Y167.673 E12.04505
G1 X168.343 Y168.051 E12.07761
G1 X167.933 Y168.388 E12.10939
G1 X167.552 Y168.656 E12.13727
G1 X167.082 Y168.938 E12.17009
G1 X166.666 Y169.148 E12.19799
G1 X166.121 Y169.374 E12.23331
G1 X165.744 Y169.499 E12.25709
G1 X165.122 Y169.657 E12.29551
G0 F6000 X165.038 Y169.184
G1 F1200 X164.663 Y169.251 E12.31831
G1 X164.08 Y169.313 E12.35341
G1 X163.659 Y169.326 E12.37863
G1 X136.229 Y169.324 E14.02082
G1 X135.9 Y169.312 E14.04053
G1 X135.337 Y169.251 E14.07443
G1 X134.943 Y169.181 E14.09839
G1 X134.365 Y169.029 E14.13417
G1 X133.898 Y168.867 E14.16376
G1 X133.524 Y168.706 E14.18814
G1 X133.081 Y168.479 E14.21794
G1 X132.655 Y168.219 E14.24782
G1 X132.263 Y167.933 E14.27687
G1 X131.919 Y167.641 E14.30388
G1 X131.523 Y167.244 E14.33745
G1 X131.218 Y166.882 E14.36579
G1 X130.942 Y166.495 E14.39425
G1 X130.705 Y166.1 E14.42183
G1 X130.518 Y165.725 E14.44691
G1 X130.318 Y165.221 E14.47938
G1 X130.189 Y164.786 E14.50654
G1 X130.09 Y164.318 E14.53518
G1 X130.027 Y163.803 E14.56624
G1 X130.013 Y163.404 E14.59014
G1 X130.017 Y138.351 E16.09002
G1 X130.039 Y137.95 E16.11406
G1 X130.098 Y137.514 E16.1404
G1 X130.216 Y136.991 E16.1725
G1 X130.321 Y136.652 E16.19375
G1 X130.534 Y136.129 E16.22756
G1 X130.771 Y135.67 E16.25848
G1 X131.023 Y135.268 E16.28689
G1 X131.273 Y134.931 E16.31201
G1 X131.615 Y134.539 E16.34315
G1 X132.011 Y134.159 E16.37601
G1 X132.486 Y133.871 E16.40927
G1 X133.069 Y133.765 E16.44474
G1 X133.479 Y133.809 E16.46943
G1 X133.909 Y133.987 E16.49729
G1 X134.295 Y134.257 E16.52549
G1 X134.649 Y134.785 E16.56355
G1 X134.775 Y135.341 E16.59768
G1 X134.785 Y165.125 E18.3808
G1 X165.719 Y165.122 E20.23276
G1 X165.764 Y165.083 E20.23633
G1 X165.77 Y137.755 E21.87241
G1 X165.778 Y135.926 E21.98191
G1 X165.902 Y135.383 E22.01525
G1 X166.18 Y134.964 E22.04536
G1 X166.517 Y134.638 E22.07343
G1 X167.016 Y134.422 E22.10598
G1 X167.208 Y134.382 E22.11772
G1 X167.639 Y134.383 E22.14352
G1 X168.036 Y134.467 E22.16782
G1 X168.432 Y134.682 E22.19479
G1 X168.711 Y134.908 E22.21629
G1 X169.049 Y135.373 E22.25071
G1 X169.305 Y135.803 E22.28067
G1 X169.502 Y136.207 E22.30758
G1 X169.69 Y136.682 E22.33816
G1 X169.807 Y137.077 E22.36282
G1 X169.91 Y137.562 E22.39251
G1 X169.973 Y138.074 E22.42339
G1 X169.987 Y138.408 E22.4434
G1 X169.987 Y163.473 E23.944
G1 X169.969 Y163.849 E23.96654
G1 X169.902 Y164.366 E23.99775
G1 X169.792 Y164.857 E24.02787
G1 X169.633 Y165.356 E24.05923
G1 X169.465 Y165.754 E24.08509
G1 X169.222 Y166.225 E24.11682
G1 X168.976 Y166.618 E24.14458
G1 X168.715 Y166.968 E24.17072
G1 X168.399 Y167.329 E24.19944
G1 X168.037 Y167.681 E24.22967
G1 X167.656 Y167.996 E24.25926
G1 X167.305 Y168.244 E24.28499
G1 X166.835 Y168.526 E24.31781
G1 X166.481 Y168.705 E24.34156
G1 X165.97 Y168.918 E24.3747
G1 X165.593 Y169.043 E24.39848
G1 X165.038 Y169.184 E24.43276
G0 F6000 X164.954 Y168.711
G1 F1200 X164.579 Y168.778 E24.45557
G1 X164.065 Y168.833 E24.48652
G1 X163.659 Y168.846 E24.51083
G1 X136.246 Y168.844 E26.152
G1 X135.917 Y168.832 E26.17171
G1 X135.421 Y168.778 E26.20158
G1 X135.027 Y168.708 E26.22554
G1 X134.521 Y168.575 E26.25686
G1 X134.088 Y168.426 E26.28428
G1 X133.714 Y168.265 E26.30865
G1 X133.331 Y168.069 E26.33441
G1 X132.905 Y167.809 E26.36429
G1 X132.574 Y167.567 E26.38884
G1 X132.23 Y167.275 E26.41585
G1 X131.889 Y166.934 E26.44472
G1 X131.608 Y166.602 E26.47076
G1 X131.353 Y166.247 E26.49693
G1 X131.135 Y165.886 E26.52218
G1 X130.948 Y165.511 E26.54727
G1 X130.778 Y165.083 E26.57484
G1 X130.659 Y164.687 E26.59959
G1 X130.56 Y164.219 E26.62823
G1 X130.507 Y163.785 E26.65441
G1 X130.493 Y163.404 E26.67723
G1 X130.496 Y138.376 E28.17561
G1 X130.515 Y138.013 E28.19738
G1 X130.567 Y137.618 E28.22123
G1 X130.675 Y137.133 E28.25098
G1 X130.78 Y136.794 E28.27222
G1 X130.978 Y136.311 E28.30347
G1 X131.178 Y135.924 E28.32955
G1 X131.409 Y135.554 E28.35567
G1 X131.659 Y135.217 E28.38079
G1 X131.976 Y134.855 E28.4096
G1 X132.303 Y134.543 E28.43665
G1 X132.66 Y134.327 E28.46163
G1 X133.087 Y134.249 E28.48762
G1 X133.358 Y134.278 E28.50394
G1 X133.675 Y134.41 E28.5245
G1 X133.947 Y134.6 E28.54436
G1 X134.201 Y134.979 E28.57167
G1 X134.295 Y135.394 E28.59715
G1 X134.305 Y165.138 E30.37787
G1 X134.349 Y165.316 E30.38885
G1 X134.444 Y165.466 E30.39948
G1 X134.602 Y165.561 E30.41051
G1 X134.794 Y165.605 E30.42231
G1 X165.765 Y165.604 E32.27649
G1 X165.947 Y165.561 E32.28768
G1 X166.195 Y165.343 E32.30745
G1 X166.245 Y165.133 E32.32037
G1 X166.25 Y137.757 E33.95933
G1 X166.258 Y135.982 E34.06559
G1 X166.351 Y135.575 E34.09059
G1 X166.55 Y135.274 E34.11219
G1 X166.789 Y135.043 E34.13209
G1 X167.207 Y134.862 E34.15936
G1 X167.638 Y134.863 E34.18516
G1 X167.866 Y134.921 E34.19925
G1 X168.203 Y135.104 E34.22221
G1 X168.36 Y135.241 E34.23468
G1 X168.637 Y135.62 E34.26279
G1 X168.874 Y136.015 E34.29037
G1 X169.056 Y136.385 E34.31505
G1 X169.23 Y136.82 E34.3431
G1 X169.337 Y137.177 E34.36541
G1 X169.44 Y137.662 E34.3951
G1 X169.493 Y138.094 E34.42115
G1 X169.507 Y138.428 E34.44117
G1 X169.507 Y163.453 E35.93937
G1 X169.493 Y163.787 E35.95938
G1 X169.426 Y164.304 E35.99059
G1 X169.334 Y164.713 E36.01569
G1 X169.19 Y165.171 E36.04443
G1 X169.038 Y165.535 E36.06805
G1 X168.815 Y165.971 E36.09737
G1 X168.59 Y166.332 E36.12284
G1 X168.352 Y166.653 E36.14676
G1 X168.063 Y166.986 E36.17316
G1 X167.73 Y167.312 E36.20106
G1 X167.377 Y167.605 E36.22852
G1 X167.057 Y167.833 E36.25204
G1 X166.617 Y168.098 E36.28279
G1 X166.295 Y168.262 E36.30443
G1 X165.819 Y168.462 E36.33534
G1 X165.442 Y168.587 E36.35912
G1 X164.954 Y168.711 E36.38926
G0 F6000 X164.786 Y167.765
G1 F1200 X164.411 Y167.832 E36.41207
G1 X164.032 Y167.873 E36.43489
G1 X163.659 Y167.886 E36.45723
G1 X136.28 Y167.884 E38.09637
G1 X135.951 Y167.872 E38.11608
G1 X135.589 Y167.832 E38.13788
G1 X135.195 Y167.762 E38.16184
G1 X134.829 Y167.666 E38.18449
G1 X134.467 Y167.544 E38.20736
G1 X134.123 Y167.397 E38.22976
G1 X133.799 Y167.231 E38.25155
G1 X133.469 Y167.031 E38.27465
G1 X133.167 Y166.812 E38.29699
G1 X132.879 Y166.568 E38.31959
G1 X132.618 Y166.309 E38.3416
G1 X132.385 Y166.038 E38.363
G1 X132.172 Y165.746 E38.38463
G1 X131.994 Y165.456 E38.40501
G1 X131.823 Y165.117 E38.42774
G1 X131.697 Y164.805 E38.44788
G1 X131.588 Y164.447 E38.47029
G1 X131.512 Y164.098 E38.49167
G1 X131.467 Y163.747 E38.51286
G1 X131.453 Y163.404 E38.53341
G1 X131.455 Y138.42 E40.02916
G1 X131.467 Y138.137 E40.04611
G1 X131.512 Y137.784 E40.06742
G1 X131.593 Y137.417 E40.08992
G1 X131.698 Y137.078 E40.11116
G1 X131.833 Y136.747 E40.13257
G1 X131.995 Y136.428 E40.15399
G1 X132.183 Y136.121 E40.17554
G1 X132.385 Y135.845 E40.19601
G1 X132.64 Y135.549 E40.2194
G1 X132.929 Y135.273 E40.24333
G1 X133.051 Y135.211 E40.25152
G1 X133.188 Y135.226 E40.25977
G1 X133.294 Y135.312 E40.26794
G1 X133.335 Y135.447 E40.27639
G1 X133.345 Y165.258 E42.06112
G1 X133.454 Y165.694 E42.08803
G1 X133.691 Y166.071 E42.11469
G1 X133.853 Y166.231 E42.12832
G1 X134.242 Y166.463 E42.15544
G1 X134.682 Y166.565 E42.18248
G1 X165.878 Y166.564 E44.05013
G1 X166.318 Y166.459 E44.07721
G1 X166.709 Y166.22 E44.10464
G1 X167.001 Y165.878 E44.13157
G1 X167.101 Y165.683 E44.14469
G1 X167.205 Y165.246 E44.17158
G1 X167.21 Y137.761 E45.81706
G1 X167.218 Y136.038 E45.92021
G1 X167.258 Y135.907 E45.92841
G1 X167.363 Y135.819 E45.93661
G1 X167.499 Y135.803 E45.94481
G1 X167.651 Y135.896 E45.95548
G1 X167.816 Y136.118 E45.97204
G1 X168.015 Y136.444 E45.99491
G1 X168.167 Y136.747 E46.0152
G1 X168.311 Y137.098 E46.03791
G1 X168.408 Y137.417 E46.05788
G1 X168.488 Y137.783 E46.08031
G1 X168.533 Y138.134 E46.10149
G1 X168.547 Y138.468 E46.1215
G1 X168.547 Y163.413 E47.61492
G1 X168.533 Y163.747 E47.63493
G1 X168.488 Y164.098 E47.65612
G1 X168.407 Y164.467 E47.67873
G1 X168.302 Y164.805 E47.69992
G1 X168.166 Y165.135 E47.72129
G1 X167.998 Y165.467 E47.74357
G1 X167.817 Y165.762 E47.76429
G1 X167.603 Y166.053 E47.78591
G1 X167.363 Y166.33 E47.80786
G1 X167.115 Y166.575 E47.82873
G1 X166.818 Y166.824 E47.85193
G1 X166.53 Y167.031 E47.87316
G1 X166.181 Y167.242 E47.89758
G1 X165.859 Y167.406 E47.91921
G1 X165.515 Y167.551 E47.94156
G1 X165.172 Y167.666 E47.96322
G1 X164.786 Y167.765 E47.98708
G0 F6000 X164.87 Y168.238
G1 F1200 X164.495 Y168.305 E48.00988
G1 X164.049 Y168.353 E48.03674
G1 X163.659 Y168.366 E48.0601
G1 X136.263 Y168.364 E49.70025
G1 X135.934 Y168.352 E49.71996
G1 X135.505 Y168.305 E49.7458
G1 X135.111 Y168.235 E49.76976
G1 X134.676 Y168.121 E49.79668
G1 X134.278 Y167.985 E49.82186
G1 X133.904 Y167.824 E49.84624
G1 X133.58 Y167.658 E49.86803
G1 X133.187 Y167.42 E49.89554
G1 X132.885 Y167.201 E49.91787
G1 X132.541 Y166.909 E49.94489
G1 X132.254 Y166.622 E49.96918
G1 X131.997 Y166.321 E49.99288
G1 X131.763 Y165.997 E50.01681
G1 X131.565 Y165.672 E50.03959
G1 X131.378 Y165.297 E50.06468
G1 X131.238 Y164.945 E50.08736
G1 X131.119 Y164.549 E50.11211
G1 X131.036 Y164.159 E50.13598
G1 X130.987 Y163.767 E50.15963
G1 X130.973 Y163.404 E50.18138
G1 X130.975 Y138.4 E51.67833
G1 X130.991 Y138.076 E51.69775
G1 X131.043 Y137.681 E51.7216
G1 X131.134 Y137.275 E51.74651
G1 X131.239 Y136.936 E51.76776
G1 X131.405 Y136.53 E51.79402
G1 X131.586 Y136.177 E51.81777
G1 X131.796 Y135.838 E51.84164
G1 X132.021 Y135.532 E51.86438
G1 X132.308 Y135.202 E51.89056
G1 X132.597 Y134.926 E51.91449
G1 X132.834 Y134.783 E51.93106
G1 X133.173 Y134.721 E51.95169
G1 X133.49 Y134.853 E51.97225
G1 X133.596 Y134.939 E51.98042
G1 X133.753 Y135.173 E51.99729
G1 X133.815 Y135.447 E52.01411
G1 X133.825 Y165.198 E53.79525
G1 X133.902 Y165.506 E53.81426
G1 X134.099 Y165.819 E53.8364
G1 X134.422 Y166.012 E53.85892
G1 X134.738 Y166.085 E53.87834
G1 X165.821 Y166.084 E55.73923
G1 X166.132 Y166.01 E55.75836
G1 X166.393 Y165.85 E55.77669
G1 X166.635 Y165.567 E55.79899
G1 X166.725 Y165.19 E55.82219
G1 X166.73 Y137.759 E57.46444
G1 X166.738 Y136.036 E57.56759
G1 X166.799 Y135.767 E57.5841
G1 X166.95 Y135.539 E57.60048
G1 X167.055 Y135.451 E57.60868
G1 X167.307 Y135.342 E57.62511
G1 X167.637 Y135.343 E57.64487
G1 X167.974 Y135.526 E57.66783
G1 X168.226 Y135.868 E57.69326
G1 X168.444 Y136.229 E57.71851
G1 X168.611 Y136.565 E57.74097
G1 X168.77 Y136.958 E57.76635
G1 X168.877 Y137.315 E57.78867
G1 X168.964 Y137.722 E57.81358
G1 X169.013 Y138.114 E57.83723
G1 X169.027 Y138.448 E57.85725
G1 X169.027 Y163.433 E59.35306
G1 X169.013 Y163.767 E59.37307
G1 X168.957 Y164.201 E59.39927
G1 X168.876 Y164.57 E59.42189
G1 X168.746 Y164.988 E59.44809
G1 X168.61 Y165.318 E59.46946
G1 X168.407 Y165.718 E59.49632
G1 X168.204 Y166.046 E59.51941
G1 X167.966 Y166.367 E59.54333
G1 X167.726 Y166.644 E59.56528
G1 X167.423 Y166.943 E59.59076
G1 X167.098 Y167.214 E59.61609
G1 X166.778 Y167.442 E59.63962
G1 X166.399 Y167.67 E59.6661
G1 X166.077 Y167.834 E59.68773
G1 X165.668 Y168.006 E59.71429
G1 X165.291 Y168.131 E59.73807
G1 X164.87 Y168.238 E59.76408
G1 F2700 E54.76408
;MESH:corpo2.stl
G0 F6000 X166.395 Y167.609
G0 X167.394 Y166.895
G0 X168.174 Y165.991
G0 X168.706 Y164.939
G0 X168.955 Y163.795
G0 X168.955 Y138.089
G0 X168.706 Y136.944
G0 X168.175 Y135.89
G0 X167.704 Y135.267
G0 X166.803 Y135.562
G0 X166.78 Y163.432
G0 X167.853 Y137.864
;TYPE:WALL-OUTER
G1 F2700 E59.76408
G1 F705.9 X167.874 Y138.192 E59.79753
G1 F683.3 X167.88 Y138.476 E59.8274
G1 F680 X167.869 Y163.688 E62.49086
G1 F697.3 X167.847 Y164.011 E62.52421
G1 F2700 E57.52421
G0 F6000 X167.861 Y163.822
G0 X166.78 Y163.902
G0 X133.769 Y163.913
G0 X132.82 Y165.649
G1 F2700 E62.52421
G1 F845.8 X132.669 Y165.444 E62.54584
G1 X132.492 Y165.155 E62.57462
G1 X132.361 Y164.897 E62.5992
G1 X132.24 Y164.605 E62.62604
G1 X132.146 Y164.294 E62.65364
G1 X132.09 Y164.033 E62.67631
G1 F833.6 X132.052 Y163.677 E62.70717
G1 F818.2 X132.045 Y163.408 E62.7308
G1 X132.042 Y138.451 E64.92219
G1 F825.2 X132.051 Y138.191 E64.94484
G1 F839.7 X132.085 Y137.858 E64.97348
G1 F853.3 X132.14 Y137.598 E64.99585
G1 X132.235 Y137.283 E65.02355
G1 X132.351 Y136.992 E65.04993
G1 X132.485 Y136.734 E65.0744
G1 X132.756 Y136.284 E65.11863
G1 X132.756 Y137.915 E65.25594
G1 F839.7 X132.746 Y138.221 E65.28214
G1 F825.2 X132.754 Y163.664 E67.49716
G1 F833.6 X132.764 Y163.963 E67.52295
G1 F845.8 X132.764 Y165.276 E67.63447
G1 X132.82 Y165.649 E67.66651
G0 F6000 X133.157 Y166.161
G1 F1263.2 X133.363 Y166.384 E67.68378
G1 F1398.1 X133.553 Y166.55 E67.69674
G1 F1461.9 X133.811 Y166.731 E67.71223
G1 F1443.6 X134.053 Y166.863 E67.72595
G1 F1333.3 X134.351 Y166.986 E67.74332
G1 F1154.3 X134.667 Y167.075 E67.76375
G1 F901.4 X135.344 Y167.172 E67.81826
G1 F754.9 X135.656 Y167.2 E67.84807
G1 F706.7 X136.3 Y167.224 E67.91358
G1 F687.4 X150.15 Y167.221 E69.36118
G1 F692.3 X164 Y167.218 E70.79842
G1 F710.2 X164.34 Y167.2 E70.83286
G1 F752.9 X164.652 Y167.172 E70.86274
G1 F2700 E65.86274
;MESH:NONMESH
G0 F300 X164.652 Y167.172 Z0.6
G0 F6000 X163.979 Y167.223
G0 X150 Y167.215
G0 X149.999 Y166.14
G0 X150 Y160.981
