;FLAVOR:Marlin
;TIME:2197
;Filament used: 1.6473m
;Layer height: 0.3
;MINX:128.969
;MINY:133.365
;MINZ:0.3
;MAXX:170.912
;MAXY:166.27
;MAXZ:24.3
;TARGET_MACHINE.NAME:Creality CR-10
;Generated with Cura_SteamEngine 5.9.0
M140 S50
M105
M190 S50
M104 S200
M105
M109 S200
M82 ;absolute extrusion mode
M201 X500.00 Y500.00 Z100.00 E5000.00 ;Setup machine max acceleration
M203 X500.00 Y500.00 Z10.00 E50.00 ;Setup machine max feedrate
M204 P500.00 R1000.00 T500.00 ;Setup Print/Retract/Travel acceleration
M205 X8.00 Y8.00 Z0.40 E5.00 ;Setup Jerk
M220 S100 ;Reset Feedrate
M221 S100 ;Reset Flowrate

G28 ;Home

G92 E0 ;Reset Extruder
G1 Z2.0 F3000 ;Move Z Axis up
G1 X10.1 Y20 Z0.28 F5000.0 ;Move to start position
G1 X10.1 Y200.0 Z0.28 F1500.0 E15 ;Draw the first line
G1 X10.4 Y200.0 Z0.28 F5000.0 ;Move to side a little
G1 X10.4 Y20 Z0.28 F1500.0 E30 ;Draw the second line
G92 E0 ;Reset Extruder
G1 Z2.0 F3000 ;Move Z Axis up

G92 E0
G92 E0
G1 F2700 E-5
;LAYER_COUNT:81
;LAYER:0
M107
G0 F6000 X140.709 Y151.507 Z0.3
;TYPE:SKIRT
G1 F2700 E0
G1 F1200 X140.884 Y151.754 E0.01812
G1 X141.318 Y152.106 E0.05158
G1 X141.608 Y152.269 E0.07149
G1 X142.276 Y152.458 E0.11306
G1 X142.871 Y152.405 E0.14882
G1 X143.181 Y152.328 E0.16794
G1 X143.422 Y152.379 E0.18269
G1 X143.477 Y152.497 E0.19048
G1 X143.455 Y152.594 E0.19644
G1 X143.37 Y152.691 E0.20416
G1 X143.2 Y152.696 E0.21434
G1 X142.896 Y152.609 E0.23327
G1 X142.283 Y152.585 E0.27
G1 X141.969 Y152.645 E0.28914
G1 X141.408 Y152.848 E0.32486
G1 X140.959 Y153.182 E0.35836
G1 X140.71 Y153.521 E0.38354
G0 F6000 X140.947 Y154.022
G1 F1200 X140.953 Y154.002 E0.38479
G1 X141.303 Y153.525 E0.42021
G1 X141.639 Y153.275 E0.44528
G1 X142.133 Y153.096 E0.47674
G1 X142.316 Y153.067 E0.48783
G1 X142.82 Y153.087 E0.51803
G1 X143.127 Y153.174 E0.53713
G1 X143.446 Y153.182 E0.55624
G1 X143.661 Y153.087 E0.57031
G1 X143.892 Y152.823 E0.59131
G1 X143.962 Y152.546 E0.60842
G1 X143.949 Y152.375 E0.61868
G1 X143.817 Y152.089 E0.63754
G1 X143.663 Y151.95 E0.64996
G1 X143.413 Y151.852 E0.66604
G1 X143.12 Y151.847 E0.68358
G1 X142.828 Y151.927 E0.70171
G1 X142.322 Y151.972 E0.73212
G1 X141.794 Y151.823 E0.76496
G1 X141.621 Y151.733 E0.77664
G1 X141.237 Y151.421 E0.80626
G1 X141.023 Y151.118 E0.82847
G1 X140.961 Y150.983 E0.83736
G0 F6000 X141.29 Y150.549
G1 F1200 X141.459 Y150.918 E0.86166
G1 X141.592 Y151.091 E0.87472
G1 X141.924 Y151.361 E0.90034
G1 X142.368 Y151.486 E0.92796
G1 X142.786 Y151.449 E0.95308
G1 X143.05 Y151.366 E0.96965
G1 X143.507 Y151.374 E0.99701
G1 X143.919 Y151.535 E1.02349
G1 X144.186 Y151.776 E1.04503
G1 X144.336 Y152.012 E1.06177
G1 X144.422 Y152.277 E1.07845
G1 X144.445 Y152.565 E1.09575
G1 X144.41 Y152.801 E1.11003
G1 X144.321 Y153.049 E1.1258
G1 X144.153 Y153.286 E1.1432
G1 X143.927 Y153.494 E1.16158
G1 X143.562 Y153.655 E1.18547
G1 X143.299 Y153.673 E1.20125
G1 X143.038 Y153.648 E1.21695
G1 X142.745 Y153.565 E1.23518
G1 X142.297 Y153.547 E1.26202
G1 X141.87 Y153.702 E1.28922
G1 X141.647 Y153.868 E1.30586
G1 X141.391 Y154.216 E1.33172
G1 X141.311 Y154.5 E1.34939
G1 F2700 E-3.65061
G0 F6000 X142.774 Y155.796
G1 F2700 E1.34939
G1 F1200 X142.371 Y155.687 E1.37438
G1 X142.255 Y155.615 E1.38256
G1 X142.194 Y155.442 E1.39354
G1 X142.233 Y154.723 E1.43665
G1 X142.28 Y154.594 E1.44487
G1 X142.389 Y154.511 E1.45307
G1 X142.539 Y154.505 E1.46206
G1 X142.86 Y154.596 E1.48203
G1 X143.286 Y154.637 E1.50765
G1 X143.668 Y154.61 E1.53058
G1 X143.995 Y154.514 E1.55098
G1 X144.287 Y154.384 E1.57012
G1 X144.562 Y154.214 E1.58947
G1 X144.875 Y153.927 E1.6149
G1 X145.087 Y153.629 E1.63679
G1 X145.225 Y153.373 E1.6542
G1 X145.346 Y153.034 E1.67575
G1 X145.411 Y152.596 E1.70226
G1 X145.372 Y152.092 E1.73253
G1 X145.21 Y151.598 E1.76365
G1 X144.927 Y151.151 E1.79533
G1 X144.47 Y150.739 E1.83216
G1 X144.094 Y150.548 E1.85741
G1 X143.693 Y150.428 E1.88247
G1 X143.27 Y150.386 E1.90792
G1 X142.866 Y150.416 E1.93217
G1 X142.544 Y150.518 E1.95239
G1 X142.407 Y150.52 E1.9606
G1 X142.291 Y150.447 E1.9688
G1 X142.231 Y150.301 E1.97825
G1 X142.195 Y149.581 E2.02141
G1 X142.228 Y149.448 E2.02961
G1 X142.367 Y149.339 E2.04019
G1 X142.622 Y149.264 E2.0561
G1 X142.971 Y149.194 E2.07741
G1 X143.301 Y149.163 E2.09726
G1 X143.63 Y149.165 E2.11695
G1 X144.056 Y149.211 E2.14261
G1 X144.527 Y149.336 E2.17178
G1 X144.968 Y149.52 E2.20039
G1 X145.317 Y149.73 E2.22477
G1 X145.564 Y149.913 E2.24318
G1 X145.824 Y150.149 E2.2642
G1 X146.044 Y150.393 E2.28387
G1 X146.293 Y150.733 E2.3091
G1 X146.481 Y151.089 E2.3332
G1 X146.598 Y151.37 E2.35142
G1 X146.694 Y151.686 E2.37119
G1 X146.764 Y152.031 E2.39227
G1 X146.793 Y152.335 E2.41055
G1 X146.793 Y152.686 E2.43157
G1 X146.764 Y152.99 E2.44985
G1 X146.676 Y153.422 E2.47624
G1 X146.546 Y153.785 E2.49933
G1 X146.398 Y154.101 E2.52022
G1 X146.227 Y154.384 E2.54001
G1 X145.97 Y154.724 E2.56553
G1 X145.706 Y154.988 E2.58788
G1 X145.434 Y155.21 E2.6089
G1 X145.088 Y155.438 E2.63371
G1 X144.74 Y155.603 E2.65677
G1 X144.405 Y155.723 E2.67807
G1 X144.098 Y155.799 E2.697
G1 X143.75 Y155.85 E2.71806
G1 X143.425 Y155.864 E2.73754
G1 X143.129 Y155.849 E2.75528
G1 X142.774 Y155.796 E2.77677
G0 F6000 X141.744 Y154.88
G1 F1200 X141.754 Y154.697 E2.78774
G1 X141.829 Y154.43 E2.80434
G1 X142.033 Y154.153 E2.82494
G1 X142.37 Y154.031 E2.8464
G1 X142.67 Y154.043 E2.86437
G1 X142.949 Y154.122 E2.88173
G1 X143.292 Y154.155 E2.90236
G1 X143.582 Y154.135 E2.91976
G1 X143.829 Y154.062 E2.93518
G1 X144.195 Y153.9 E2.95915
G1 X144.514 Y153.607 E2.98508
G1 X144.751 Y153.272 E3.00964
G1 X144.878 Y152.919 E3.0321
G1 X144.928 Y152.58 E3.05262
G1 X144.897 Y152.185 E3.07634
G1 X144.773 Y151.806 E3.10021
G1 X144.555 Y151.462 E3.12459
G1 X144.195 Y151.138 E3.15359
G1 X143.917 Y150.996 E3.17228
G1 X143.6 Y150.901 E3.19209
G1 X143.264 Y150.868 E3.2123
G1 X142.958 Y150.891 E3.23068
G1 X142.689 Y150.976 E3.24756
G1 X142.414 Y151 E3.26409
G1 X142.151 Y150.926 E3.28045
G1 X141.895 Y150.718 E3.3002
G1 X141.757 Y150.417 E3.32002
G1 X141.743 Y150.143 E3.33644
G1 F2700 E-1.66356
G0 F6000 X133.413 Y146.875
G1 F2700 E3.33644
G1 F1200 X133.705 Y146.174 E3.38191
G1 X134.48 Y145.122 E3.46013
G1 X135.47 Y144.242 E3.53943
G1 X136.407 Y143.691 E3.60451
G1 X136.936 Y143.518 E3.63783
G1 X137.282 Y143.497 E3.65858
G1 X137.566 Y143.427 E3.6761
G1 X137.911 Y143.411 E3.69677
G1 X138.545 Y143.234 E3.73618
G1 X139.147 Y143.1 E3.7731
G1 X140.208 Y142.966 E3.83713
G1 X140.925 Y142.933 E3.8801
G1 X144.456 Y142.93 E4.09149
G1 X144.644 Y142.9 E4.10289
G1 X144.777 Y142.767 E4.11415
G1 X145.164 Y141.815 E4.17568
G1 X145.255 Y141.452 E4.19808
G1 X145.275 Y140.978 E4.22648
G1 X145.275 Y139.718 E4.30192
G1 X145.311 Y139.257 E4.3296
G1 X145.317 Y138.99 E4.34559
G1 X145.3 Y138.619 E4.36782
G1 X145.207 Y137.664 E4.42527
G1 X145.278 Y136.847 E4.47437
G1 X145.539 Y136.028 E4.52583
G1 X145.796 Y135.501 E4.56093
G1 X146.146 Y134.957 E4.59966
G1 X146.805 Y134.303 E4.65524
G1 X147.563 Y133.817 E4.70915
G1 X148.504 Y133.484 E4.76891
G1 X149.472 Y133.365 E4.8273
G1 X150.433 Y133.483 E4.88526
G1 X151.369 Y133.8 E4.94442
G1 X152.197 Y134.357 E5.00417
G1 X152.816 Y134.978 E5.05666
G1 X153.218 Y135.63 E5.10252
G1 X153.449 Y136.139 E5.13598
G1 X153.681 Y136.953 E5.18666
G1 X153.736 Y137.705 E5.2318
G1 X153.629 Y138.68 E5.29052
G1 X153.612 Y139.084 E5.31473
G1 X153.628 Y139.367 E5.3317
G1 X153.67 Y139.787 E5.35697
G1 X153.683 Y140.801 E5.41768
G1 X153.702 Y141.1 E5.43561
G1 X153.745 Y141.405 E5.45406
G1 X153.891 Y141.847 E5.48192
G1 X154.066 Y142.119 E5.50129
G1 X154.237 Y142.577 E5.53055
G1 X154.28 Y142.888 E5.54935
G1 X154.461 Y142.933 E5.56052
G1 X159.102 Y142.937 E5.83837
G1 X159.873 Y142.978 E5.88459
G1 X160.691 Y143.089 E5.93401
G1 X161.566 Y143.283 E5.98767
G1 X161.923 Y143.252 E6.00912
G1 X162.407 Y143.327 E6.03844
G1 X162.739 Y143.491 E6.06061
G1 X162.965 Y143.509 E6.07418
G1 X163.38 Y143.61 E6.09976
G1 X164.505 Y144.277 E6.17805
G1 X165.469 Y145.164 E6.25648
G1 X166.214 Y146.179 E6.33186
G1 X166.551 Y146.955 E6.38251
G1 X166.747 Y147.022 E6.39491
G1 X167.162 Y147.077 E6.41997
G1 X167.786 Y147.193 E6.45797
G1 X168.664 Y147.545 E6.5146
G1 X169.313 Y148.063 E6.56431
G1 X169.865 Y148.637 E6.61199
G1 X170.393 Y149.359 E6.66554
G1 X170.685 Y150.332 E6.72636
G1 X170.912 Y151.67 E6.80761
G1 X170.705 Y152.87 E6.88051
G1 X170.094 Y154.171 E6.96656
G1 X169.997 Y154.509 E6.98761
G1 X170.004 Y154.763 E7.00283
G1 X170.089 Y155.053 E7.02092
G1 X170.557 Y156.035 E7.08604
G1 X170.853 Y156.867 E7.13891
G1 X170.868 Y157.795 E7.19448
G1 X170.668 Y158.952 E7.26477
G1 X170.502 Y159.532 E7.30089
G1 X170.103 Y160.243 E7.3497
G1 X169.74 Y160.708 E7.38502
G1 X169.274 Y161.169 E7.42426
G1 X168.656 Y161.634 E7.47056
G1 X167.752 Y162.04 E7.52989
G1 X167.069 Y162.141 E7.57123
G1 X166.754 Y162.171 E7.59017
G1 X166.56 Y162.24 E7.6025
G1 X166.18 Y163.084 E7.65791
G1 X165.448 Y164.072 E7.73153
G1 X164.454 Y164.96 E7.81132
G1 X163.521 Y165.506 E7.87604
G1 X162.987 Y165.681 E7.90969
G1 X162.581 Y165.699 E7.93402
G1 X162.287 Y165.763 E7.95203
G1 X162.047 Y165.777 E7.96642
G1 X161.385 Y165.964 E8.00761
G1 X160.627 Y166.125 E8.054
G1 X159.757 Y166.234 E8.10649
G1 X159.007 Y166.27 E8.15144
G1 X140.827 Y166.27 E9.23985
G1 X140.208 Y166.242 E9.27695
G1 X139.204 Y166.108 E9.33759
G1 X138.333 Y165.914 E9.39101
G1 X137.934 Y165.977 E9.41519
G1 X137.485 Y165.869 E9.44284
G1 X137.141 Y165.698 E9.46584
G1 X136.895 Y165.675 E9.48063
G1 X136.512 Y165.574 E9.50434
G1 X135.421 Y164.928 E9.58025
G1 X134.44 Y164.029 E9.65991
G1 X133.704 Y163.017 E9.73483
G1 X133.513 Y162.592 E9.76272
G1 X133.348 Y162.377 E9.77895
G1 X132.826 Y162.325 E9.81036
G1 X132.129 Y162.193 E9.85283
G1 X131.29 Y161.844 E9.90723
G1 X130.695 Y161.427 E9.95073
G1 X129.914 Y160.636 E10.01728
G1 X129.582 Y160.126 E10.05371
G1 X129.278 Y159.545 E10.09296
G1 X129.065 Y158.696 E10.14537
G1 X128.969 Y157.8 E10.19932
G1 X128.973 Y157.096 E10.24147
G1 X129.165 Y156.218 E10.29527
G1 X129.624 Y155.202 E10.36202
G1 X129.777 Y154.767 E10.38962
G1 X129.789 Y154.517 E10.40461
G1 X129.725 Y154.14 E10.4275
G1 X129.4 Y153.481 E10.47149
G1 X129.21 Y152.663 E10.52177
G1 X129.136 Y151.853 E10.57046
G1 X129.126 Y151.326 E10.60202
G1 X129.364 Y150.109 E10.67626
G1 X129.629 Y149.322 E10.72597
G1 X130.18 Y148.581 E10.78126
G1 X130.793 Y147.952 E10.83384
G1 X131.463 Y147.488 E10.88263
G1 X132.212 Y147.206 E10.93055
G1 X132.685 Y147.093 E10.95966
G1 X133.183 Y147.033 E10.98969
G1 X133.337 Y146.963 E10.99982
G1 X133.413 Y146.875 E11.00678
G0 F6000 X133.908 Y146.933
G1 F1200 X133.788 Y147.175 E11.02295
G1 X133.633 Y147.356 E11.03722
G1 X133.311 Y147.502 E11.05838
G1 X132.797 Y147.56 E11.08935
G1 X132.324 Y147.673 E11.11847
G1 X131.689 Y147.916 E11.15917
G1 X131.104 Y148.32 E11.20173
G1 X130.524 Y148.916 E11.25152
G1 X130.06 Y149.547 E11.29841
G1 X129.819 Y150.262 E11.34358
G1 X129.607 Y151.366 E11.41089
G1 X129.616 Y151.844 E11.43951
G1 X129.688 Y152.619 E11.48611
G1 X129.855 Y153.319 E11.52919
G1 X130.094 Y153.803 E11.56151
G1 X130.204 Y154.094 E11.58013
G1 X130.27 Y154.488 E11.60405
G1 X130.253 Y154.852 E11.62586
G1 X130.163 Y155.14 E11.64393
G1 X130.07 Y155.38 E11.65934
G1 X129.623 Y156.369 E11.72431
G1 X129.453 Y157.149 E11.77211
G1 X129.449 Y157.803 E11.81126
G1 X129.542 Y158.643 E11.86186
G1 X129.73 Y159.374 E11.90705
G1 X130.007 Y159.903 E11.9428
G1 X130.29 Y160.333 E11.97361
G1 X131.006 Y161.058 E12.03462
G1 X131.525 Y161.422 E12.07257
G1 X132.264 Y161.729 E12.12048
G1 X132.916 Y161.853 E12.16021
G1 X133.381 Y161.898 E12.18818
G1 X133.589 Y161.963 E12.20123
G1 X133.722 Y162.066 E12.2113
G1 X133.932 Y162.353 E12.23259
G1 X134.123 Y162.777 E12.26043
G1 X134.799 Y163.707 E12.32926
G1 X135.707 Y164.539 E12.40299
G1 X136.7 Y165.127 E12.47208
G1 X137.018 Y165.211 E12.49177
G1 X137.268 Y165.225 E12.50676
G1 X137.65 Y165.415 E12.53231
G1 X137.955 Y165.488 E12.55108
G1 X138.35 Y165.426 E12.57502
G1 X139.308 Y165.639 E12.63377
G1 X140.23 Y165.762 E12.68946
G1 X140.849 Y165.79 E12.72656
G1 X159.007 Y165.79 E13.81364
G1 X159.734 Y165.755 E13.85722
G1 X160.527 Y165.655 E13.90507
G1 X161.285 Y165.494 E13.95146
G1 X161.975 Y165.298 E13.99441
G1 X162.186 Y165.294 E14.00704
G1 X162.524 Y165.221 E14.02774
G1 X162.902 Y165.204 E14.0504
G1 X163.325 Y165.065 E14.07705
G1 X164.168 Y164.572 E14.13552
G1 X165.091 Y163.747 E14.20963
G1 X165.764 Y162.839 E14.2773
G1 X166.091 Y162.111 E14.32508
G1 X166.256 Y161.88 E14.34207
G1 X166.376 Y161.796 E14.35084
G1 X166.651 Y161.698 E14.36832
G1 X167.024 Y161.663 E14.39075
G1 X167.617 Y161.574 E14.42665
G1 X168.407 Y161.22 E14.47847
G1 X168.985 Y160.785 E14.52178
G1 X169.4 Y160.369 E14.55696
G1 X169.723 Y159.95 E14.58864
G1 X170.055 Y159.349 E14.62974
G1 X170.206 Y158.82 E14.66268
G1 X170.387 Y157.759 E14.72711
G1 X170.374 Y156.953 E14.77537
G1 X170.105 Y156.196 E14.82347
G1 X169.85 Y155.68 E14.85793
G1 X169.638 Y155.22 E14.88825
G1 X169.526 Y154.839 E14.91203
G1 X169.515 Y154.449 E14.93539
G1 X169.645 Y153.998 E14.96349
G1 X170.243 Y152.723 E15.0478
G1 X170.425 Y151.668 E15.11189
G1 X170.212 Y150.412 E15.18816
G1 X169.957 Y149.577 E15.24043
G1 X169.477 Y148.92 E15.28914
G1 X168.969 Y148.398 E15.33275
G1 X168.419 Y147.964 E15.37469
G1 X167.654 Y147.657 E15.42404
G1 X167.074 Y147.549 E15.45936
G1 X166.637 Y147.492 E15.48575
G1 X166.287 Y147.372 E15.5079
G1 X166.102 Y147.126 E15.52632
G1 X165.796 Y146.421 E15.57234
G1 X165.109 Y145.485 E15.64185
G1 X164.218 Y144.665 E15.71434
G1 X163.195 Y144.059 E15.78553
G1 X162.851 Y143.975 E15.80673
G1 X162.621 Y143.967 E15.8205
G1 X162.26 Y143.79 E15.84457
G1 X161.907 Y143.735 E15.86596
G1 X161.533 Y143.768 E15.88844
G1 X160.587 Y143.558 E15.94645
G1 X159.809 Y143.454 E15.99345
G1 X159.077 Y143.416 E16.03733
G1 X154.431 Y143.413 E16.31548
G1 X154.183 Y143.381 E16.33045
G1 X153.934 Y143.246 E16.3474
G1 X153.814 Y143.065 E16.36041
G1 X153.787 Y142.745 E16.37963
G1 X153.633 Y142.332 E16.40602
G1 X153.46 Y142.064 E16.42512
G1 X153.357 Y141.785 E16.44292
G1 X153.276 Y141.512 E16.45997
G1 X153.224 Y141.148 E16.48198
G1 X153.203 Y140.817 E16.50184
G1 X153.192 Y139.835 E16.56063
G1 X153.15 Y139.415 E16.5859
G1 X153.131 Y139.084 E16.60575
G1 X153.149 Y138.66 E16.63116
G1 X153.254 Y137.699 E16.68904
G1 X153.205 Y137.034 E16.72896
G1 X153.01 Y136.334 E16.77246
G1 X152.809 Y135.882 E16.80207
G1 X152.436 Y135.277 E16.84463
G1 X151.889 Y134.728 E16.89102
G1 X151.156 Y134.235 E16.94391
G1 X150.322 Y133.952 E16.99664
G1 X149.473 Y133.848 E17.04784
G1 X148.618 Y133.953 E17.09942
G1 X147.773 Y134.252 E17.15308
G1 X147.108 Y134.679 E17.20039
G1 X146.522 Y135.26 E17.24979
G1 X146.2 Y135.761 E17.28545
G1 X145.972 Y136.236 E17.31699
G1 X145.751 Y136.942 E17.36128
G1 X145.689 Y137.659 E17.40437
G1 X145.78 Y138.598 E17.46085
G1 X145.797 Y138.98 E17.48374
G1 X145.79 Y139.294 E17.50254
G1 X145.754 Y139.755 E17.53023
G1 X145.755 Y140.998 E17.60464
G1 X145.733 Y141.522 E17.63604
G1 X145.622 Y141.964 E17.66332
G1 X145.198 Y143.007 E17.73073
G1 X145.037 Y143.218 E17.74662
G1 X144.819 Y143.358 E17.76213
G1 X144.495 Y143.41 E17.78178
G1 X140.925 Y143.413 E17.99551
G1 X140.23 Y143.445 E18.03716
G1 X139.251 Y143.569 E18.09624
G1 X138.649 Y143.703 E18.13316
G1 X137.978 Y143.89 E18.17486
G1 X137.68 Y143.893 E18.1927
G1 X137.354 Y143.973 E18.2128
G1 X137.026 Y143.993 E18.23247
G1 X136.607 Y144.13 E18.25886
G1 X135.755 Y144.631 E18.31804
G1 X134.835 Y145.449 E18.39174
G1 X134.126 Y146.411 E18.46328
G1 X133.908 Y146.933 E18.49715
G0 F6000 X134.191 Y147.443
G1 F1200 X134.346 Y147.13 E18.51806
G1 X134.547 Y146.648 E18.54933
G1 X135.19 Y145.776 E18.61419
G1 X136.04 Y145.02 E18.68229
G1 X136.806 Y144.57 E18.73548
G1 X137.117 Y144.468 E18.75508
G1 X137.441 Y144.448 E18.77451
G1 X137.685 Y144.373 E18.78979
G1 X138.045 Y144.369 E18.81135
G1 X138.753 Y144.172 E18.85534
G1 X139.355 Y144.038 E18.89227
G1 X140.252 Y143.924 E18.9464
G1 X140.925 Y143.893 E18.98673
G1 X144.535 Y143.89 E19.20286
G1 X144.956 Y143.822 E19.22839
G1 X145.153 Y143.734 E19.24131
G1 X145.381 Y143.559 E19.25851
G1 X145.619 Y143.246 E19.28205
G1 X146.08 Y142.113 E19.35529
G1 X146.189 Y141.678 E19.38213
G1 X146.219 Y141.403 E19.39869
G1 X146.235 Y141.018 E19.42176
