;FLAVOR:Marlin
;TIME:498
;Filament used: 0.419918m
;Layer height: 0.3
;MINX:139.34
;MINY:139.34
;MINZ:0.3
;MAXX:160.66
;MAXY:160.66
;MAXZ:10.8
;TARGET_MACHINE.NAME:Creality CR-10
;Generated with Cura_SteamEngine 5.9.0
M140 S50
M105
M190 S50
M104 S200
M105
M109 S200
M82 ;absolute extrusion mode
M201 X500.00 Y500.00 Z100.00 E5000.00 ;Setup machine max acceleration
M203 X500.00 Y500.00 Z10.00 E50.00 ;Setup machine max feedrate
M204 P500.00 R1000.00 T500.00 ;Setup Print/Retract/Travel acceleration
M205 X8.00 Y8.00 Z0.40 E5.00 ;Setup Jerk
M220 S100 ;Reset Feedrate
M221 S100 ;Reset Flowrate

G28 ;Home

G92 E0 ;Reset Extruder
G1 Z2.0 F3000 ;Move Z Axis up
G1 X10.1 Y20 Z0.28 F5000.0 ;Move to start position
G1 X10.1 Y200.0 Z0.28 F1500.0 E15 ;Draw the first line
G1 X10.4 Y200.0 Z0.28 F5000.0 ;Move to side a little
G1 X10.4 Y20 Z0.28 F1500.0 E30 ;Draw the second line
G92 E0 ;Reset Extruder
G1 Z2.0 F3000 ;Move Z Axis up

G92 E0
G92 E0
G1 F2700 E-5
;LAYER_COUNT:36
;LAYER:0
M107
G0 F6000 X152.02 Y160.467 Z0.3
;TYPE:SKIRT
G1 F2700 E0
G1 F1200 X151.516 Y160.553 E0.03061
G1 X150.988 Y160.614 E0.06243
G1 X150.461 Y160.65 E0.09405
G1 X149.941 Y160.66 E0.12519
G1 X149.425 Y160.645 E0.1561
G1 X148.993 Y160.613 E0.18203
G1 X148.375 Y160.535 E0.21932
G1 X147.913 Y160.453 E0.24741
G1 X147.348 Y160.325 E0.2821
G1 X146.843 Y160.18 E0.31355
G1 X146.359 Y160.017 E0.34413
G1 X145.894 Y159.838 E0.37396
G1 X145.401 Y159.618 E0.40628
G1 X144.966 Y159.396 E0.43552
G1 X144.465 Y159.11 E0.47005
G1 X144.094 Y158.874 E0.49638
G1 X143.606 Y158.526 E0.53226
G1 X143.194 Y158.204 E0.56357
G1 X142.816 Y157.876 E0.59353
G1 X142.45 Y157.525 E0.62389
G1 X142.059 Y157.111 E0.65798
G1 X141.722 Y156.715 E0.68911
G1 X141.403 Y156.301 E0.7204
G1 X141.106 Y155.873 E0.75159
G1 X140.839 Y155.45 E0.78154
G1 X140.579 Y154.987 E0.81333
G1 X140.34 Y154.503 E0.84564
G1 X140.133 Y154.033 E0.87639
G1 X139.975 Y153.625 E0.90258
G1 X139.784 Y153.042 E0.93931
G1 X139.658 Y152.583 E0.96781
G1 X139.543 Y152.065 E0.99957
G1 X139.45 Y151.506 E1.0335
G1 X139.386 Y150.983 E1.06505
G1 X139.351 Y150.463 E1.09625
G1 X139.34 Y149.934 E1.12792
G1 X139.356 Y149.42 E1.15871
G1 X139.387 Y148.999 E1.18398
G1 X139.465 Y148.373 E1.22175
G1 X139.554 Y147.875 E1.25204
G1 X139.648 Y147.453 E1.27792
G1 X139.817 Y146.853 E1.31524
G1 X139.959 Y146.421 E1.34247
G1 X140.175 Y145.867 E1.37806
G1 X140.376 Y145.418 E1.40752
G1 X140.604 Y144.965 E1.43788
G1 X140.89 Y144.467 E1.47226
G1 X141.168 Y144.033 E1.50311
G1 X141.419 Y143.677 E1.52919
G1 X141.794 Y143.197 E1.56566
G1 X142.142 Y142.796 E1.59745
G1 X142.489 Y142.436 E1.62738
G1 X142.885 Y142.062 E1.65999
G1 X143.257 Y141.744 E1.68929
G1 X143.681 Y141.416 E1.72138
G1 X144.126 Y141.105 E1.75389
G1 X144.577 Y140.823 E1.78573
G1 X145.023 Y140.576 E1.81625
G1 X145.501 Y140.335 E1.8483
G1 X145.954 Y140.137 E1.8779
G1 X146.444 Y139.951 E1.90928
G1 X146.946 Y139.788 E1.94088
G1 X147.465 Y139.648 E1.97306
G1 X147.975 Y139.534 E2.00434
G1 X148.487 Y139.447 E2.03544
G1 X149.016 Y139.386 E2.06732
G1 X149.536 Y139.35 E2.09852
G1 X150.057 Y139.34 E2.12972
G1 X150.584 Y139.355 E2.16128
G1 X151.007 Y139.387 E2.18668
G1 X151.624 Y139.464 E2.2239
G1 X152.122 Y139.553 E2.25419
G1 X152.653 Y139.677 E2.28684
G1 X153.148 Y139.816 E2.31762
G1 X153.603 Y139.967 E2.34632
G1 X154.131 Y140.172 E2.38023
G1 X154.523 Y140.346 E2.4059
G1 X155.074 Y140.626 E2.44291
G1 X155.528 Y140.886 E2.47423
G1 X155.926 Y141.139 E2.50246
G1 X156.399 Y141.475 E2.5372
G1 X156.808 Y141.798 E2.5684
G1 X157.206 Y142.144 E2.59997
G1 X157.544 Y142.468 E2.628
G1 X157.932 Y142.877 E2.66175
G1 X158.252 Y143.251 E2.69122
G1 X158.585 Y143.681 E2.72378
G1 X158.895 Y144.125 E2.7562
G1 X159.179 Y144.578 E2.78821
G1 X159.419 Y145.007 E2.81764
G1 X159.63 Y145.426 E2.84573
G1 X159.871 Y145.973 E2.88151
G1 X160.024 Y146.368 E2.90687
G1 X160.217 Y146.963 E2.94432
G1 X160.353 Y147.466 E2.97552
G1 X160.463 Y147.962 E3.00593
G1 X160.55 Y148.488 E3.03785
G1 X160.615 Y149.019 E3.06988
G1 X160.65 Y149.54 E3.10114
G1 X160.66 Y150.057 E3.1321
G1 X160.645 Y150.579 E3.16336
G1 X160.614 Y151.007 E3.18905
G1 X160.536 Y151.617 E3.22587
G1 X160.45 Y152.105 E3.25553
G1 X160.331 Y152.634 E3.288
G1 X160.184 Y153.146 E3.31989
G1 X160.027 Y153.62 E3.34978
G1 X159.833 Y154.12 E3.38189
G1 X159.643 Y154.547 E3.40987
G1 X159.369 Y155.085 E3.44602
G1 X159.114 Y155.528 E3.47662
G1 X158.833 Y155.967 E3.50782
G1 X158.568 Y156.342 E3.53531
G1 X158.203 Y156.808 E3.57075
G1 X157.875 Y157.186 E3.60071
G1 X157.517 Y157.558 E3.63162
G1 X157.116 Y157.938 E3.6647
G1 X156.762 Y158.241 E3.69259
G1 X156.3 Y158.599 E3.72758
G1 X155.874 Y158.897 E3.75871
G1 X155.472 Y159.15 E3.78714
G1 X154.999 Y159.415 E3.8196
G1 X154.523 Y159.654 E3.85149
G1 X154.043 Y159.864 E3.88286
G1 X153.559 Y160.048 E3.91386
G1 X153.037 Y160.217 E3.94671
G1 X152.536 Y160.352 E3.97777
G1 X152.02 Y160.467 E4.00942
G0 F6000 X151.939 Y159.994
G1 F1200 X151.46 Y160.076 E4.03851
G1 X150.955 Y160.135 E4.06895
G1 X150.451 Y160.17 E4.0992
G1 X149.955 Y160.18 E4.1289
G1 X149.46 Y160.166 E4.15855
G1 X149.028 Y160.134 E4.18448
G1 X148.459 Y160.062 E4.21882
G1 X147.997 Y159.98 E4.24691
G1 X147.48 Y159.863 E4.27864
G1 X146.996 Y159.725 E4.30877
G1 X146.531 Y159.569 E4.33814
G1 X146.089 Y159.399 E4.36649
G1 X145.619 Y159.19 E4.39728
G1 X145.204 Y158.979 E4.42516
G1 X144.723 Y158.705 E4.4583
G1 X144.352 Y158.469 E4.48462
G1 X143.901 Y158.148 E4.51776
G1 X143.508 Y157.841 E4.54762
G1 X143.148 Y157.529 E4.57614
G1 X142.799 Y157.195 E4.60506
G1 X142.424 Y156.799 E4.63771
G1 X142.102 Y156.422 E4.66739
G1 X141.797 Y156.027 E4.69727
G1 X141.512 Y155.617 E4.72716
G1 X141.258 Y155.215 E4.75563
G1 X140.998 Y154.752 E4.78742
G1 X140.779 Y154.309 E4.81701
G1 X140.581 Y153.86 E4.84639
G1 X140.423 Y153.452 E4.87258
G1 X140.247 Y152.915 E4.90641
G1 X140.127 Y152.479 E4.93349
G1 X140.012 Y151.961 E4.96525
G1 X139.926 Y151.448 E4.99639
G1 X139.865 Y150.95 E5.02643
G1 X139.831 Y150.453 E5.05626
G1 X139.82 Y149.949 E5.08644
G1 X139.835 Y149.455 E5.11602
G1 X139.866 Y149.034 E5.1413
G1 X139.938 Y148.457 E5.17611
G1 X140.023 Y147.979 E5.20518
G1 X140.117 Y147.557 E5.23106
G1 X140.273 Y147.003 E5.26552
G1 X140.415 Y146.571 E5.29274
G1 X140.613 Y146.063 E5.32538
G1 X140.805 Y145.634 E5.35352
G1 X141.033 Y145.181 E5.38388
G1 X141.295 Y144.725 E5.41537
G1 X141.56 Y144.31 E5.44485
G1 X141.811 Y143.954 E5.47092
G1 X142.157 Y143.511 E5.50458
G1 X142.488 Y143.129 E5.53484
G1 X142.819 Y142.785 E5.56342
G1 X143.197 Y142.427 E5.59459
G1 X143.551 Y142.124 E5.62248
G1 X143.975 Y141.796 E5.65458
G1 X144.381 Y141.512 E5.68424
G1 X144.81 Y141.243 E5.71455
G1 X145.24 Y141.004 E5.74401
G1 X145.693 Y140.775 E5.77439
G1 X146.125 Y140.586 E5.80262
G1 X146.592 Y140.408 E5.83254
G1 X147.094 Y140.245 E5.86414
G1 X147.57 Y140.116 E5.89367
G1 X148.056 Y140.007 E5.92349
G1 X148.542 Y139.924 E5.953
G1 X149.05 Y139.865 E5.98362
G1 X149.546 Y139.83 E6.01339
G1 X150.044 Y139.82 E6.04321
G1 X150.548 Y139.834 E6.0734
G1 X150.971 Y139.866 E6.09879
G1 X151.54 Y139.937 E6.13312
G1 X152.038 Y140.026 E6.16341
G1 X152.523 Y140.139 E6.19322
G1 X152.997 Y140.272 E6.2227
G1 X153.452 Y140.423 E6.2514
G1 X153.936 Y140.611 E6.28248
G1 X154.328 Y140.785 E6.30816
G1 X154.836 Y141.043 E6.34227
G1 X155.27 Y141.291 E6.3722
G1 X155.668 Y141.544 E6.40043
G1 X156.102 Y141.852 E6.43229
G1 X156.493 Y142.16 E6.46209
G1 X156.874 Y142.491 E6.4923
G1 X157.212 Y142.815 E6.52034
G1 X157.567 Y143.189 E6.55121
G1 X157.872 Y143.545 E6.57927
G1 X158.205 Y143.975 E6.61183
G1 X158.489 Y144.381 E6.6415
G1 X158.76 Y144.812 E6.67198
G1 X158.99 Y145.223 E6.70017
G1 X159.201 Y145.642 E6.72826
G1 X159.423 Y146.146 E6.76123
G1 X159.576 Y146.541 E6.78659
G1 X159.754 Y147.088 E6.82103
G1 X159.884 Y147.57 E6.85091
G1 X159.994 Y148.066 E6.88133
G1 X160.074 Y148.546 E6.91046
G1 X160.136 Y149.052 E6.94098
G1 X160.17 Y149.55 E6.97087
G1 X160.18 Y150.044 E7.00045
G1 X160.166 Y150.544 E7.03039
G1 X160.135 Y150.972 E7.05609
G1 X160.063 Y151.534 E7.09001
G1 X159.977 Y152.022 E7.11967
G1 X159.869 Y152.502 E7.14913
G1 X159.728 Y152.996 E7.17988
G1 X159.58 Y153.446 E7.20824
G1 X159.394 Y153.925 E7.23901
G1 X159.204 Y154.352 E7.26699
G1 X158.953 Y154.846 E7.30016
G1 X158.709 Y155.27 E7.32945
G1 X158.441 Y155.69 E7.35928
G1 X158.19 Y156.046 E7.38535
G1 X157.84 Y156.494 E7.41939
G1 X157.529 Y156.853 E7.44783
G1 X157.171 Y157.225 E7.47873
G1 X156.804 Y157.573 E7.50901
G1 X156.45 Y157.876 E7.53691
G1 X156.025 Y158.206 E7.56912
G1 X155.618 Y158.491 E7.59887
G1 X155.237 Y158.731 E7.62583
G1 X154.764 Y158.996 E7.65829
G1 X154.33 Y159.214 E7.68736
G1 X153.872 Y159.415 E7.71731
G1 X153.388 Y159.599 E7.74831
G1 X152.912 Y159.754 E7.77828
G1 X152.431 Y159.884 E7.80811
G1 X151.939 Y159.994 E7.83829
G0 F6000 X151.858 Y159.521
G1 F1200 X151.404 Y159.599 E7.86587
G1 X150.921 Y159.656 E7.89498
G1 X150.441 Y159.69 E7.92379
G1 X149.968 Y159.7 E7.95212
G1 X149.495 Y159.687 E7.98045
G1 X149.063 Y159.655 E8.00638
G1 X148.542 Y159.589 E8.03782
G1 X148.103 Y159.512 E8.0645
G1 X147.611 Y159.401 E8.0947
G1 X147.148 Y159.27 E8.12351
G1 X146.703 Y159.121 E8.1516
G1 X146.261 Y158.951 E8.17995
G1 X145.837 Y158.762 E8.20774
G1 X145.422 Y158.551 E8.23562
G1 X144.981 Y158.3 E8.266
G1 X144.61 Y158.064 E8.29232
G1 X144.196 Y157.77 E8.32272
G1 X143.822 Y157.478 E8.35113
G1 X143.48 Y157.182 E8.3782
G1 X143.131 Y156.848 E8.40713
G1 X142.789 Y156.487 E8.4369
G1 X142.482 Y156.128 E8.46518
G1 X142.191 Y155.752 E8.49364
G1 X141.918 Y155.361 E8.52219
G1 X141.664 Y154.959 E8.55066
G1 X141.428 Y154.539 E8.5795
G1 X141.218 Y154.115 E8.60783
G1 X141.029 Y153.687 E8.63584
G1 X140.871 Y153.279 E8.66203
G1 X140.71 Y152.787 E8.69303
G1 X140.596 Y152.375 E8.71862
G1 X140.481 Y151.857 E8.75038
G1 X140.402 Y151.389 E8.7788
G1 X140.344 Y150.917 E8.80727
G1 X140.311 Y150.442 E8.83578
G1 X140.3 Y149.963 E8.86446
G1 X140.314 Y149.49 E8.89279
G1 X140.345 Y149.069 E8.91806
G1 X140.411 Y148.541 E8.94992
G1 X140.492 Y148.083 E8.97776
G1 X140.586 Y147.661 E9.00365
G1 X140.729 Y147.153 E9.03524
G1 X140.871 Y146.721 E9.06247
G1 X141.051 Y146.259 E9.09215
G1 X141.234 Y145.85 E9.11898
G1 X141.462 Y145.397 E9.14934
G1 X141.7 Y144.983 E9.17793
G1 X141.952 Y144.587 E9.20603
G1 X142.203 Y144.231 E9.23211
G1 X142.52 Y143.825 E9.26295
G1 X142.834 Y143.462 E9.29168
G1 X143.15 Y143.133 E9.31899
G1 X143.509 Y142.792 E9.34863
G1 X143.863 Y142.489 E9.37653
G1 X144.25 Y142.189 E9.40585
G1 X144.637 Y141.918 E9.43413
G1 X145.044 Y141.662 E9.46292
G1 X145.457 Y141.432 E9.49122
G1 X145.886 Y141.215 E9.52
G1 X146.296 Y141.035 E9.54681
G1 X146.763 Y140.857 E9.57673
G1 X147.22 Y140.708 E9.6055
G1 X147.675 Y140.584 E9.63374
G1 X148.137 Y140.48 E9.66209
G1 X148.598 Y140.401 E9.69009
G1 X149.084 Y140.344 E9.71939
G1 X149.556 Y140.31 E9.74772
G1 X150.031 Y140.3 E9.77616
G1 X150.512 Y140.313 E9.80497
G1 X150.935 Y140.345 E9.83036
G1 X151.455 Y140.409 E9.86173
G1 X151.93 Y140.494 E9.89062
G1 X152.393 Y140.601 E9.91907
G1 X152.846 Y140.728 E9.94724
G1 X153.301 Y140.879 E9.97594
G1 X153.741 Y141.05 E10.0042
G1 X154.133 Y141.224 E10.02987
G1 X154.598 Y141.46 E10.06109
G1 X155.012 Y141.696 E10.08962
G1 X155.41 Y141.949 E10.11786
G1 X155.806 Y142.23 E10.14693
G1 X156.178 Y142.522 E10.17524
G1 X156.542 Y142.838 E10.2041
G1 X156.864 Y143.146 E10.23077
G1 X157.202 Y143.501 E10.26012
G1 X157.507 Y143.857 E10.28819
G1 X157.812 Y144.25 E10.31797
G1 X158.083 Y144.637 E10.34625
G1 X158.341 Y145.046 E10.3752
G1 X158.561 Y145.439 E10.40217
G1 X158.772 Y145.858 E10.43025
G1 X158.975 Y146.319 E10.46041
G1 X159.128 Y146.714 E10.48577
G1 X159.291 Y147.214 E10.51725
G1 X159.416 Y147.675 E10.54585
G1 X159.521 Y148.145 E10.57468
G1 X159.598 Y148.605 E10.60261
G1 X159.657 Y149.085 E10.63156
G1 X159.69 Y149.56 E10.66006
G1 X159.7 Y150.031 E10.68827
G1 X159.687 Y150.509 E10.7169
G1 X159.656 Y150.937 E10.74259
G1 X159.59 Y151.452 E10.77367
G1 X159.509 Y151.917 E10.80193
G1 X159.407 Y152.371 E10.82979
G1 X159.272 Y152.846 E10.85935
G1 X159.132 Y153.273 E10.88625
G1 X158.955 Y153.73 E10.91559
G1 X158.765 Y154.157 E10.94357
G1 X158.537 Y154.607 E10.97377
G1 X158.304 Y155.012 E11.00175
G1 X158.049 Y155.413 E11.0302
G1 X157.798 Y155.769 E11.05628
G1 X157.477 Y156.18 E11.0875
G1 X157.183 Y156.52 E11.11441
G1 X156.84 Y156.877 E11.14405
G1 X156.492 Y157.208 E11.1728
G1 X156.138 Y157.511 E11.2007
G1 X155.749 Y157.813 E11.23018
G1 X155.361 Y158.085 E11.25855
G1 X155.002 Y158.312 E11.28398
G1 X154.548 Y158.567 E11.31515
G1 X154.137 Y158.774 E11.3427
G1 X153.679 Y158.975 E11.37264
G1 X153.239 Y159.143 E11.40084
G1 X152.786 Y159.291 E11.42937
G1 X152.326 Y159.416 E11.45791
G1 X151.858 Y159.521 E11.48663
G0 F6000 X151.696 Y158.575
G1 F1200 X151.289 Y158.645 E11.51135
G1 X150.851 Y158.698 E11.53776
G1 X150.419 Y158.73 E11.5637
G1 X149.993 Y158.74 E11.58921
G1 X149.565 Y158.729 E11.61484
G1 X149.133 Y158.697 E11.64077
G1 X148.707 Y158.643 E11.66648
G1 X148.291 Y158.571 E11.69176
G1 X147.87 Y158.477 E11.71758
G1 X147.452 Y158.36 E11.74357
G1 X147.047 Y158.225 E11.76913
G1 X146.651 Y158.073 E11.79452
G1 X146.25 Y157.895 E11.82079
G1 X145.876 Y157.705 E11.8459
G1 X145.496 Y157.49 E11.87204
G1 X145.145 Y157.267 E11.89694
G1 X144.785 Y157.012 E11.92335
G1 X144.45 Y156.752 E11.94874
G1 X144.126 Y156.472 E11.97437
G1 X143.811 Y156.17 E12.0005
G1 X143.517 Y155.861 E12.02603
G1 X143.24 Y155.539 E12.05146
G1 X142.977 Y155.201 E12.0771
G1 X142.728 Y154.846 E12.10306
G1 X142.5 Y154.488 E12.12847
G1 X142.288 Y154.113 E12.15426
G1 X142.096 Y153.726 E12.18013
G1 X141.925 Y153.341 E12.20535
G1 X141.767 Y152.933 E12.23154
G1 X141.636 Y152.531 E12.25685
G1 X141.522 Y152.119 E12.28245
G1 X141.427 Y151.694 E12.30852
G1 X141.354 Y151.272 E12.33416
G1 X141.302 Y150.849 E12.35967
G1 X141.271 Y150.418 E12.38554
G1 X141.26 Y149.99 E12.41117
G1 X141.272 Y149.56 E12.43693
G1 X141.303 Y149.139 E12.4622
G1 X141.357 Y148.707 E12.48827
G1 X141.43 Y148.291 E12.51355
G1 X141.524 Y147.869 E12.53943
G1 X141.641 Y147.453 E12.56531
G1 X141.775 Y147.045 E12.59102
G1 X141.929 Y146.649 E12.61645
G1 X142.102 Y146.26 E12.64194
G1 X142.295 Y145.874 E12.66778
G1 X142.51 Y145.497 E12.69376
G1 X142.736 Y145.141 E12.71901
G1 X142.987 Y144.785 E12.74508
G1 X143.247 Y144.452 E12.77038
G1 X143.527 Y144.127 E12.79606
G1 X143.828 Y143.813 E12.8221
G1 X144.134 Y143.52 E12.84746
G1 X144.451 Y143.247 E12.87251
G1 X144.803 Y142.974 E12.89918
G1 X145.149 Y142.73 E12.92453
G1 X145.513 Y142.5 E12.9503
G1 X145.891 Y142.288 E12.97625
G1 X146.273 Y142.094 E13.0019
G1 X146.661 Y141.923 E13.02728
G1 X147.061 Y141.769 E13.05294
G1 X147.474 Y141.634 E13.07896
G1 X147.888 Y141.52 E13.10467
G1 X148.3 Y141.426 E13.12997
G1 X148.712 Y141.355 E13.15499
G1 X149.155 Y141.302 E13.18171
G1 X149.578 Y141.27 E13.2071
G1 X150.006 Y141.26 E13.23273
G1 X150.44 Y141.271 E13.25872
G1 X150.863 Y141.303 E13.28412
G1 X151.288 Y141.355 E13.30975
G1 X151.717 Y141.43 E13.33583
G1 X152.135 Y141.525 E13.36149
G1 X152.544 Y141.639 E13.38691
G1 X152.955 Y141.775 E13.41283
G1 X153.351 Y141.928 E13.43824
G1 X153.743 Y142.102 E13.46392
G1 X154.125 Y142.295 E13.48954
G1 X154.498 Y142.506 E13.5152
G1 X154.856 Y142.733 E13.54058
G1 X155.215 Y142.987 E13.56691
G1 X155.55 Y143.248 E13.59233
G1 X155.879 Y143.532 E13.61835
G1 X156.185 Y143.824 E13.64367
G1 X156.473 Y144.126 E13.66866
G1 X156.763 Y144.464 E13.69532
G1 X157.027 Y144.803 E13.72104
G1 X157.271 Y145.149 E13.74639
G1 X157.503 Y145.516 E13.77238
G1 X157.713 Y145.89 E13.79806
G1 X157.904 Y146.268 E13.82342
G1 X158.079 Y146.665 E13.84939
G1 X158.232 Y147.06 E13.87475
G1 X158.365 Y147.469 E13.9005
G1 X158.48 Y147.886 E13.9264
G1 X158.575 Y148.305 E13.95212
G1 X158.646 Y148.723 E13.9775
G1 X158.699 Y149.154 E14.0035
G1 X158.73 Y149.582 E14.02919
G1 X158.74 Y150.006 E14.05458
G1 X158.729 Y150.439 E14.08051
G1 X158.698 Y150.867 E14.1062
G1 X158.644 Y151.288 E14.13161
G1 X158.571 Y151.709 E14.15719
G1 X158.476 Y152.136 E14.18338
G1 X158.36 Y152.547 E14.20895
G1 X158.228 Y152.95 E14.23434
G1 X158.077 Y153.34 E14.25938
G1 X157.897 Y153.746 E14.28596
G1 X157.704 Y154.13 E14.31169
G1 X157.494 Y154.498 E14.33706
G1 X157.265 Y154.859 E14.36265
