;FLAVOR:Marlin
;TIME:4499
;Filament used: 3.75163m
;Layer height: 0.3
;MINX:128.873
;MINY:130.353
;MINZ:0.3
;MAXX:171.127
;MAXY:169.645
;MAXZ:35.7
;TARGET_MACHINE.NAME:Creality CR-10
;Generated with Cura_SteamEngine 5.9.0
M140 S50
M105
M190 S50
M104 S200
M105
M109 S200
M82 ;absolute extrusion mode
M201 X500.00 Y500.00 Z100.00 E5000.00 ;Setup machine max acceleration
M203 X500.00 Y500.00 Z10.00 E50.00 ;Setup machine max feedrate
M204 P500.00 R1000.00 T500.00 ;Setup Print/Retract/Travel acceleration
M205 X8.00 Y8.00 Z0.40 E5.00 ;Setup Jerk
M220 S100 ;Reset Feedrate
M221 S100 ;Reset Flowrate

G28 ;Home

G92 E0 ;Reset Extruder
G1 Z2.0 F3000 ;Move Z Axis up
G1 X10.1 Y20 Z0.28 F5000.0 ;Move to start position
G1 X10.1 Y200.0 Z0.28 F1500.0 E15 ;Draw the first line
G1 X10.4 Y200.0 Z0.28 F5000.0 ;Move to side a little
G1 X10.4 Y20 Z0.28 F1500.0 E30 ;Draw the second line
G92 E0 ;Reset Extruder
G1 Z2.0 F3000 ;Move Z Axis up

G92 E0
G92 E0
G1 F2700 E-5
;LAYER_COUNT:119
;LAYER:0
M107
G0 F6000 X161.062 Y169.491 Z0.3
;TYPE:SKIRT
G1 F2700 E0
G1 F1200 X160.301 Y169.576 E0.04584
G1 X159.502 Y169.622 E0.09376
G1 X158.634 Y169.645 E0.14574
G1 X141.359 Y169.645 E1.17996
G1 X140.424 Y169.618 E1.23596
G1 X139.563 Y169.567 E1.2876
G1 X138.911 Y169.488 E1.32692
G1 X138.306 Y169.349 E1.36409
G1 X137.813 Y169.107 E1.39696
G1 X137.437 Y168.804 E1.42587
G1 X137.235 Y168.556 E1.44502
G1 X136.26 Y168.556 E1.5034
G1 X135.855 Y168.541 E1.52766
G1 X135.272 Y168.477 E1.56277
G1 X134.646 Y168.362 E1.60088
G1 X134.166 Y168.234 E1.63062
G1 X133.714 Y168.081 E1.65919
G1 X133.129 Y167.831 E1.69727
G1 X132.756 Y167.639 E1.72239
G1 X132.185 Y167.288 E1.76252
G1 X131.842 Y167.038 E1.78793
G1 X131.343 Y166.612 E1.82721
G1 X130.965 Y166.229 E1.85942
G1 X130.642 Y165.846 E1.88942
G1 X130.316 Y165.39 E1.92298
G1 X130.081 Y164.998 E1.95034
G1 X129.805 Y164.44 E1.98761
G1 X129.614 Y163.959 E2.01859
G1 X129.498 Y163.583 E2.04215
G1 X129.353 Y162.902 E2.08383
G1 X129.288 Y162.348 E2.11723
G1 X129.273 Y161.917 E2.14305
G1 X129.272 Y154.552 E2.58398
G1 X129.382 Y154.052 E2.61463
G1 X129.295 Y153.946 E2.62284
G1 X128.986 Y153.441 E2.65828
G1 X128.873 Y152.9 E2.69137
G1 X128.873 Y147.954 E2.98748
G1 X129.022 Y147.273 E3.02921
G1 X129.377 Y146.742 E3.06745
G1 X129.273 Y146.399 E3.08891
G1 X129.275 Y136.887 E3.65838
G1 X129.3 Y136.423 E3.6862
G1 X129.368 Y135.912 E3.71706
G1 X129.502 Y135.319 E3.75345
G1 X129.67 Y134.803 E3.78594
G1 X129.884 Y134.295 E3.81894
G1 X130.11 Y133.857 E3.84845
G1 X130.413 Y133.37 E3.88279
G1 X130.639 Y133.063 E3.90561
G1 X131.083 Y132.553 E3.94609
G1 X131.489 Y132.162 E3.97984
G1 X131.874 Y131.846 E4.00966
G1 X132.344 Y131.515 E4.04408
G1 X132.663 Y131.323 E4.06637
G1 X133.29 Y131.003 E4.10851
G1 X133.687 Y130.839 E4.13422
G1 X134.287 Y130.64 E4.17207
G1 X134.745 Y130.524 E4.20036
G1 X135.284 Y130.428 E4.23313
G1 X135.885 Y130.366 E4.2693
G1 X136.269 Y130.353 E4.29231
G1 X163.738 Y130.353 E5.93683
G1 X164.136 Y130.367 E5.96067
G1 X164.803 Y130.44 E6.00084
G1 X165.318 Y130.537 E6.03221
G1 X165.752 Y130.65 E6.05906
G1 X166.383 Y130.866 E6.09899
G1 X166.81 Y131.049 E6.1268
G1 X167.287 Y131.295 E6.15894
G1 X167.814 Y131.619 E6.19597
G1 X168.213 Y131.912 E6.22561
G1 X168.644 Y132.283 E6.25965
G1 X169.035 Y132.68 E6.29301
G1 X169.371 Y133.08 E6.32429
G1 X169.694 Y133.536 E6.35774
G1 X169.964 Y133.991 E6.38942
G1 X170.175 Y134.419 E6.41799
G1 X170.381 Y134.941 E6.45158
G1 X170.538 Y135.471 E6.48468
G1 X170.636 Y135.938 E6.51324
G1 X170.712 Y136.558 E6.55064
G1 X170.727 Y136.991 E6.57658
G1 X170.728 Y146.239 E7.13024
G1 X170.618 Y146.737 E7.16077
G1 X170.962 Y147.248 E7.19765
G1 X171.127 Y147.793 E7.23174
G1 X171.127 Y152.836 E7.53366
G1 X170.978 Y153.516 E7.57534
G1 X170.622 Y154.048 E7.61366
G1 X170.727 Y154.392 E7.63519
G1 X170.724 Y162.02 E8.09187
G1 X170.694 Y162.538 E8.12293
G1 X170.615 Y163.088 E8.1562
G1 X170.499 Y163.589 E8.18698
G1 X170.356 Y164.04 E8.21531
G1 X170.145 Y164.558 E8.24879
G1 X169.909 Y165.018 E8.27975
G1 X169.63 Y165.471 E8.3116
G1 X169.265 Y165.962 E8.34823
G1 X169.024 Y166.241 E8.3703
G1 X168.51 Y166.745 E8.41339
G1 X168.106 Y167.078 E8.44474
G1 X167.652 Y167.398 E8.47799
G1 X167.318 Y167.598 E8.5013
G1 X166.729 Y167.897 E8.54084
G1 X166.384 Y168.044 E8.5633
G1 X165.706 Y168.27 E8.60608
G1 X165.183 Y168.4 E8.63835
G1 X164.784 Y168.471 E8.66261
G1 X164.116 Y168.542 E8.70283
G1 X163.659 Y168.556 E8.7302
G1 X162.77 Y168.557 E8.78342
G1 X162.495 Y168.858 E8.80783
G1 X162.159 Y169.122 E8.83341
G1 X161.738 Y169.341 E8.86182
G1 X161.062 Y169.491 E8.90328
G0 F6000 X160.958 Y169.022
G1 F1200 X161.574 Y168.885 E8.94106
G1 X161.897 Y168.717 E8.96286
G1 X162.199 Y168.48 E8.98584
G1 X162.398 Y168.258 E9.00369
G1 X162.498 Y168.077 E9.01607
G1 X163.659 Y168.076 E9.08557
G1 X164.101 Y168.062 E9.11205
G1 X164.7 Y167.998 E9.14811
G1 X165.099 Y167.927 E9.17238
G1 X165.589 Y167.804 E9.20262
G1 X166.196 Y167.602 E9.24092
G1 X166.541 Y167.455 E9.26337
G1 X167.071 Y167.186 E9.29896
G1 X167.405 Y166.986 E9.32226
G1 X167.828 Y166.686 E9.35331
G1 X168.205 Y166.375 E9.38257
G1 X168.661 Y165.927 E9.42084
G1 X168.902 Y165.648 E9.44291
G1 X169.221 Y165.219 E9.47492
G1 X169.5 Y164.766 E9.50677
G1 X169.7 Y164.377 E9.53296
G1 X169.911 Y163.859 E9.56644
G1 X170.041 Y163.445 E9.59242
G1 X170.147 Y162.981 E9.62091
G1 X170.219 Y162.471 E9.65175
G1 X170.245 Y161.994 E9.68035
G1 X170.247 Y154.462 E10.13128
G1 X170.145 Y154.126 E10.1523
G1 X170.051 Y153.947 E10.1644
G1 X170.216 Y153.792 E10.17796
G1 X170.528 Y153.325 E10.21158
G1 X170.647 Y152.783 E10.2448
G1 X170.647 Y147.863 E10.53935
G1 X170.524 Y147.457 E10.56475
G1 X170.213 Y146.995 E10.59809
G1 X170.051 Y146.843 E10.61139
G1 X170.148 Y146.639 E10.62492
G1 X170.248 Y146.186 E10.65269
G1 X170.247 Y136.991 E11.20318
G1 X170.232 Y136.575 E11.2281
G1 X170.166 Y136.037 E11.26055
G1 X170.068 Y135.57 E11.28912
G1 X169.921 Y135.079 E11.3198
G1 X169.744 Y134.631 E11.34864
G1 X169.533 Y134.203 E11.37721
G1 X169.282 Y133.782 E11.40655
G1 X168.98 Y133.359 E11.43767
G1 X168.668 Y132.989 E11.46664
G1 X168.303 Y132.621 E11.49767
G1 X167.901 Y132.277 E11.52935
G1 X167.531 Y132.007 E11.55677
G1 X167.067 Y131.722 E11.58937
G1 X166.59 Y131.476 E11.6215
G1 X166.195 Y131.308 E11.6472
G1 X165.631 Y131.115 E11.68289
G1 X165.197 Y131.002 E11.70974
G1 X164.715 Y130.912 E11.73909
G1 X164.119 Y130.847 E11.77499
G1 X163.721 Y130.833 E11.79883
G1 X136.285 Y130.833 E13.44138
G1 X135.901 Y130.846 E13.46438
G1 X135.368 Y130.901 E13.49646
G1 X134.829 Y130.997 E13.52923
G1 X134.405 Y131.105 E13.55543
G1 X133.87 Y131.283 E13.58918
G1 X133.473 Y131.447 E13.6149
G1 X132.911 Y131.734 E13.65268
G1 X132.592 Y131.926 E13.67497
G1 X132.179 Y132.217 E13.70522
G1 X131.794 Y132.533 E13.73504
G1 X131.417 Y132.898 E13.76645
G1 X131.026 Y133.348 E13.80214
G1 X130.8 Y133.655 E13.82496
G1 X130.537 Y134.077 E13.85473
G1 X130.311 Y134.515 E13.88424
G1 X130.113 Y134.988 E13.91494
G1 X129.959 Y135.466 E13.945
G1 X129.844 Y135.975 E13.97624
G1 X129.776 Y136.486 E14.00711
G1 X129.754 Y136.912 E14.03265
G1 X129.753 Y146.329 E14.59642
G1 X129.855 Y146.665 E14.61745
G1 X129.949 Y146.844 E14.62955
G1 X129.784 Y146.998 E14.64306
G1 X129.472 Y147.464 E14.67664
G1 X129.353 Y148.007 E14.70992
G1 X129.353 Y152.85 E14.99986
G1 X129.439 Y153.261 E15.025
G1 X129.705 Y153.696 E15.05552
G1 X129.951 Y153.944 E15.07644
G1 X129.852 Y154.152 E15.09023
G1 X129.752 Y154.605 E15.118
G1 X129.753 Y161.917 E15.55576
G1 X129.768 Y162.331 E15.58056
G1 X129.83 Y162.844 E15.6115
G1 X129.957 Y163.441 E15.64804
G1 X130.073 Y163.817 E15.67159
G1 X130.251 Y164.262 E15.70029
G1 X130.493 Y164.751 E15.73295
G1 X130.728 Y165.143 E15.76031
G1 X131.032 Y165.566 E15.7915
G1 X131.331 Y165.918 E15.81915
G1 X131.684 Y166.274 E15.84916
G1 X132.125 Y166.65 E15.88386
G1 X132.468 Y166.9 E15.90927
G1 X132.976 Y167.212 E15.94496
G1 X133.349 Y167.404 E15.97008
G1 X133.868 Y167.626 E16.00387
G1 X134.32 Y167.779 E16.03244
G1 X134.769 Y167.898 E16.06025
G1 X135.358 Y168.005 E16.09609
G1 X135.873 Y168.061 E16.1271
G1 X136.278 Y168.076 E16.15137
G1 X137.502 Y168.076 E16.22465
G1 X137.578 Y168.217 E16.23423
G1 X137.779 Y168.463 E16.25325
G1 X138.073 Y168.7 E16.27586
G1 X138.469 Y168.894 E16.30226
G1 X138.969 Y169.011 E16.333
G1 X139.621 Y169.09 E16.37232
G1 X140.452 Y169.139 E16.42216
G1 X141.373 Y169.165 E16.47732
G1 X158.621 Y169.165 E17.50993
G1 X159.489 Y169.142 E17.56191
G1 X160.273 Y169.097 E17.60893
G1 X160.958 Y169.022 E17.65018
G0 F6000 X160.905 Y168.545
G1 F1200 X160.246 Y168.618 E17.68988
G1 X159.476 Y168.662 E17.73605
G1 X158.608 Y168.685 E17.78803
G1 X141.386 Y168.685 E18.81908
G1 X140.48 Y168.66 E18.87335
G1 X139.679 Y168.613 E18.92138
G1 X139.027 Y168.534 E18.9607
G1 X138.629 Y168.438 E18.98521
G1 X138.333 Y168.293 E19.00495
G1 X138.08 Y168.089 E19.0244
G1 X137.964 Y167.932 E19.03609
G1 X137.81 Y167.596 E19.05822
G1 X136.296 Y167.596 E19.14886
G1 X135.891 Y167.581 E19.17312
G1 X135.443 Y167.533 E19.2001
G1 X134.891 Y167.434 E19.23367
G1 X134.474 Y167.324 E19.25949
G1 X134.022 Y167.171 E19.28806
G1 X133.569 Y166.977 E19.31756
G1 X133.196 Y166.785 E19.34268
G1 X132.751 Y166.512 E19.37393
G1 X132.408 Y166.262 E19.39934
G1 X132.024 Y165.935 E19.42954
G1 X131.696 Y165.606 E19.45735
G1 X131.421 Y165.284 E19.4827
G1 X131.14 Y164.896 E19.51138
G1 X130.905 Y164.504 E19.53875
G1 X130.696 Y164.083 E19.56688
G1 X130.532 Y163.675 E19.59321
G1 X130.416 Y163.299 E19.61677
G1 X130.306 Y162.785 E19.64824
G1 X130.248 Y162.313 E19.67671
G1 X130.233 Y161.917 E19.70043
G1 X130.232 Y154.659 E20.13496
G1 X130.321 Y154.256 E20.15966
G1 X130.519 Y153.952 E20.18138
G1 X130.687 Y153.793 E20.19523
G1 X130.544 Y153.758 E20.20405
G1 X130.315 Y153.629 E20.21978
G1 X130.086 Y153.398 E20.23925
G1 X129.891 Y153.079 E20.26164
G1 X129.833 Y152.85 E20.27578
G1 X129.833 Y148.06 E20.56255
G1 X129.922 Y147.655 E20.58738
G1 X130.183 Y147.265 E20.61547
G1 X130.639 Y146.958 E20.64838
G1 X130.536 Y146.857 E20.65702
G1 X130.314 Y146.526 E20.68088
G1 X130.233 Y146.259 E20.69758
G1 X130.233 Y136.936 E21.25573
G1 X130.252 Y136.549 E21.27893
G1 X130.32 Y136.038 E21.30979
G1 X130.416 Y135.612 E21.33594
G1 X130.556 Y135.172 E21.36358
G1 X130.738 Y134.734 E21.39198
G1 X130.945 Y134.33 E21.41915
G1 X131.187 Y133.94 E21.44663
G1 X131.413 Y133.633 E21.46945
G1 X131.752 Y133.242 E21.50043
G1 X132.1 Y132.903 E21.52952
G1 X132.456 Y132.609 E21.55716
G1 X132.84 Y132.337 E21.58533
G1 X133.159 Y132.145 E21.60762
G1 X133.656 Y131.891 E21.64104
G1 X134.053 Y131.727 E21.66676
G1 X134.525 Y131.57 E21.69654
G1 X134.913 Y131.47 E21.72052
G1 X135.452 Y131.374 E21.7533
G1 X135.917 Y131.326 E21.78129
G1 X136.301 Y131.313 E21.80429
G1 X163.704 Y131.313 E23.44486
G1 X164.102 Y131.327 E23.4687
G1 X164.628 Y131.384 E23.50038
G1 X165.076 Y131.467 E23.52765
G1 X165.51 Y131.58 E23.5545
G1 X166.008 Y131.75 E23.58601
G1 X166.37 Y131.903 E23.60954
G1 X166.847 Y132.149 E23.64167
G1 X167.249 Y132.396 E23.66991
G1 X167.59 Y132.643 E23.69512
G1 X167.963 Y132.96 E23.72443
G1 X168.302 Y133.3 E23.75317
G1 X168.59 Y133.639 E23.7798
G1 X168.87 Y134.029 E23.80855
G1 X169.103 Y134.417 E23.83564
G1 X169.298 Y134.809 E23.86185
G1 X169.462 Y135.219 E23.88829
G1 X169.599 Y135.67 E23.91651
G1 X169.69 Y136.096 E23.94259
G1 X169.752 Y136.593 E23.97257
G1 X169.767 Y136.991 E23.99642
G1 X169.768 Y146.132 E24.54367
G1 X169.679 Y146.535 E24.56838
G1 X169.481 Y146.839 E24.5901
G1 X169.336 Y146.983 E24.60233
G1 X169.501 Y147.053 E24.61307
G1 X169.815 Y147.263 E24.63568
G1 X170.086 Y147.666 E24.66476
G1 X170.167 Y147.933 E24.68146
G1 X170.167 Y152.73 E24.96865
G1 X170.078 Y153.135 E24.99347
G1 X169.817 Y153.526 E25.02162
G1 X169.47 Y153.756 E25.04654
G1 X169.333 Y153.805 E25.05525
G1 X169.464 Y153.934 E25.06626
G1 X169.686 Y154.265 E25.09012
G1 X169.767 Y154.532 E25.10682
G1 X169.766 Y161.97 E25.55212
G1 X169.744 Y162.405 E25.5782
G1 X169.679 Y162.875 E25.60661
G1 X169.583 Y163.301 E25.63275
G1 X169.453 Y163.715 E25.65873
G1 X169.272 Y164.159 E25.68743
G1 X169.091 Y164.514 E25.71129
G1 X168.812 Y164.967 E25.74314
G1 X168.539 Y165.334 E25.77052
G1 X168.298 Y165.613 E25.7926
G1 X167.899 Y166.005 E25.82608
G1 X167.549 Y166.295 E25.8533
G1 X167.158 Y166.574 E25.88205
G1 X166.824 Y166.774 E25.90536
G1 X166.353 Y167.013 E25.93698
G1 X166.008 Y167.16 E25.95943
G1 X165.472 Y167.339 E25.99326
G1 X165.015 Y167.454 E26.02147
G1 X164.616 Y167.525 E26.04574
G1 X164.085 Y167.582 E26.07771
G1 X163.659 Y167.596 E26.10323
G1 X162.181 Y167.597 E26.19171
G1 X162.03 Y167.95 E26.2147
G1 X161.903 Y168.102 E26.22656
G1 X161.601 Y168.339 E26.24954
G1 X161.412 Y168.429 E26.26207
G1 X160.905 Y168.545 E26.29321
G0 F6000 X161.094 Y167.517
G1 F1200 X160.746 Y167.6 E26.31463
G1 X160.192 Y167.66 E26.34799
G1 X159.45 Y167.702 E26.39248
G1 X158.582 Y167.725 E26.44447
G1 X141.412 Y167.725 E27.4724
G1 X140.536 Y167.702 E27.52487
G1 X139.787 Y167.659 E27.56978
G1 X139.251 Y167.6 E27.60207
G1 X138.905 Y167.517 E27.62337
G1 X138.787 Y167.448 E27.63155
G1 X138.722 Y167.284 E27.64211
G1 X138.722 Y166.636 E27.68091
G1 X136.332 Y166.636 E27.82399
G1 X135.927 Y166.621 E27.84826
G1 X135.548 Y166.579 E27.87108
G1 X135.133 Y166.504 E27.89633
G1 X134.749 Y166.404 E27.92009
G1 X134.365 Y166.275 E27.94434
G1 X134.005 Y166.121 E27.96778
G1 X133.664 Y165.947 E27.9907
G1 X133.316 Y165.736 E28.01507
G1 X133 Y165.506 E28.03847
G1 X132.701 Y165.255 E28.06184
G1 X132.424 Y164.98 E28.08521
G1 X132.173 Y164.688 E28.10826
G1 X131.961 Y164.398 E28.12976
G1 X131.762 Y164.072 E28.15263
G1 X131.585 Y163.722 E28.17611
G1 X131.45 Y163.391 E28.19751
G1 X131.334 Y163.015 E28.22107
G1 X131.258 Y162.664 E28.24257
G1 X131.208 Y162.274 E28.26611
G1 X131.193 Y161.917 E28.2875
G1 X131.192 Y154.712 E28.71885
G1 X131.231 Y154.581 E28.72704
G1 X131.36 Y154.472 E28.73715
G1 X135.88 Y154.472 E29.00775
G1 X136.011 Y154.511 E29.01593
G1 X136.12 Y154.64 E29.02604
G1 X136.121 Y159.062 E29.29078
G1 X136.175 Y159.75 E29.3321
G1 X136.34 Y160.445 E29.37486
G1 X136.59 Y161.068 E29.41505
G1 X136.95 Y161.67 E29.45704
G1 X137.391 Y162.199 E29.49828
G1 X137.911 Y162.655 E29.53968
G1 X138.493 Y163.021 E29.58084
G1 X139.123 Y163.288 E29.62181
G1 X139.78 Y163.45 E29.66232
G1 X140.466 Y163.505 E29.70352
G1 X158.763 Y163.505 E30.79893
G1 X159.449 Y163.45 E30.84013
G1 X160.107 Y163.288 E30.8807
G1 X160.737 Y163.021 E30.92167
G1 X161.319 Y162.655 E30.96283
G1 X161.839 Y162.199 E31.00423
G1 X162.281 Y161.67 E31.0455
G1 X162.633 Y161.08 E31.08663
G1 X162.896 Y160.426 E31.12883
G1 X163.057 Y159.745 E31.17073
G1 X163.11 Y159.05 E31.21246
G1 X163.11 Y154.712 E31.47217
G1 X163.149 Y154.581 E31.48035
G1 X163.278 Y154.472 E31.49046
G1 X168.567 Y154.472 E31.8071
G1 X168.698 Y154.511 E31.81529
G1 X168.807 Y154.64 E31.8254
G1 X168.807 Y161.927 E32.26166
G1 X168.792 Y162.279 E32.28275
G1 X168.741 Y162.67 E32.30636
G1 X168.666 Y163.015 E32.32749
G1 X168.55 Y163.391 E32.35105
G1 X168.416 Y163.723 E32.37248
G1 X168.235 Y164.078 E32.39634
G1 X168.039 Y164.398 E32.41881
G1 X167.813 Y164.706 E32.44168
G1 X167.572 Y164.985 E32.46375
G1 X167.284 Y165.268 E32.48792
G1 X166.987 Y165.516 E32.51109
G1 X166.664 Y165.75 E32.53497
G1 X166.33 Y165.95 E32.55827
G1 X165.977 Y166.129 E32.58197
G1 X165.632 Y166.276 E32.60442
G1 X165.235 Y166.409 E32.62949
G1 X164.847 Y166.508 E32.65346
G1 X164.448 Y166.579 E32.67772
G1 X164.052 Y166.622 E32.70157
G1 X163.659 Y166.636 E32.72511
G1 X161.278 Y166.637 E32.86766
G1 X161.278 Y167.284 E32.90639
G1 X161.239 Y167.415 E32.91458
G1 X161.094 Y167.517 E32.92519
G1 F2700 E27.92519
G0 F6000 X161.691 Y167.049
G0 X164.092 Y167.045
G0 X165.364 Y166.815
G0 X166.543 Y166.318
G0 X167.577 Y165.576
G0 X168.397 Y164.627
G0 X168.953 Y163.524
G0 X169.214 Y162.328
G0 X169.22 Y154.059
G0 X168.769 Y146.744
G0 X168.769 Y146.21
G1 F2700 E32.92519
G1 F1200 X168.808 Y146.079 E32.93337
G1 X168.807 Y136.991 E33.47745
G1 X168.792 Y136.632 E33.49897
G1 X168.745 Y136.26 E33.52141
G1 X168.661 Y135.876 E33.54495
G1 X168.557 Y135.538 E33.56612
G1 X168.407 Y135.167 E33.59008
G1 X168.246 Y134.851 E33.61131
G1 X168.049 Y134.526 E33.63406
G1 X167.814 Y134.205 E33.65788
G1 X167.573 Y133.925 E33.68
